!!!!SEGMENT: pl-wumfc--n53446--001-017_moniuszko-stanislaw--hrabina-no-14-kotyljon-i-final.krn
!!!cenid: 18xx:4104
!!!COM: Moniuszko, Stanisław
!!!COM-rismID: pe30008351
!!!CDT: 1819/05/05-1872/06/04
!!!CNT: Polish
!!!OPR: Hrabina
!!!OTL: No. 14. Kotyljon i finał
!!!OMV: 017
!!!PDT:
!!!AGN:
!!!SMS-siglum: PL-Wumfc
!!!SMS-shelfmark: N53446
!!!SMS-shelfwork: 001-017 M
!!!SMS-variant:
!!!SMS-altvar:
!!!NIFC-rismSourceID: 1001165649
!!!NIFC-rismChildID: 1001165649
!!!NIFC-islandoraID: pl-wumfc:6884
!!!URL-pdf-islandora: https://repozytorium.nifc.pl/islandora/object/pl-wumfc%3A6884/datastream/PDF/view
!!!URL-scan: https://polish.musicsources.pl/pl/lokalizacje/galeria/druki-muzyczne/12579 @EN{Scan on Polish Music Sources Website} @PL{Skany w portalu Dziedzictwo Muzyki Polskiej w otwartym dostępie}
!!!ONB-nifc:
!!!AIN: 1 piano
!!!key: F
**kern	**kern	**text	**text	**dynam	**fing
*part1	*part1	*part1	*part1	*part1	*part1
*staff2	*staff1	*staff1	*staff1	*	*
*I"[Piano.]	*I"[Piano.]	*	*	*	*
*>[A,A,B,B,C,C1,C,C2,D,E,E1,E,E2,F]	*>[A,A,B,B,C,C1,C,C2,D,E,E1,E,E2,F]	*	*	*	*
*>A	*>A	*	*	*	*
*Ipiano	*Ipiano	*	*	*	*
*ICklav	*ICklav	*	*	*	*
*clefF4	*clefG2	*	*	*	*
*k[]	*k[]	*	*	*	*
*F:	*F:	*	*	*	*
*M3/4	*M3/4	*	*	*	*
=1	=1	=1	=1	=1	=1
!!LO:TX:B:a:t=Moderato.
.	16qqdd/LL	.	.	f	.
.	16qqcc/	.	.	.	.
.	16qqb/JJ	.	.	.	.
4C 4GG 4CC/	2.cc\	.	.	.	.
4c 4G 4E\	.	.	.	.	.
4c 4G 4E\	.	.	.	.	.
=2	=2	=2	=2	=2	=2
.	16qqdd/LL	.	.	.	.
.	16qqcc/	.	.	.	.
.	16qqb/JJ	.	.	.	.
4C 4GG 4CC/	2.cc\	.	.	.	.
4c 4G 4E\	.	.	.	.	.
4c 4G 4E\	.	.	.	.	.
=3	=3	=3	=3	=3	=3
.	16qqdd/LL	.	.	.	.
.	16qqcc/	.	.	.	.
.	16qqb/JJ	.	.	.	.
4C 4GG 4CC/	8.cc\L	.	.	.	.
.	16dd\K	.	.	.	.
4c 4G 4E\	8.ee\	.	.	.	.
.	16ff\K	.	.	.	.
4c 4G 4E\	8.gg\	.	.	.	.
.	16aa\Jk	.	.	.	.
=4	=4	=4	=4	=4	=4
4C 4GG 4CC/	8.gg\L	.	.	.	.
.	16ff\K	.	.	.	.
4c 4G 4E\	8.ee\	.	.	.	.
.	16dd\Jk	.	.	.	.
4c 4G 4E\	8cc\	.	.	.	.
.	8r	.	.	.	.
=5	=5	=5	=5	=5	=5
.	16qqee/LL	.	.	.	.
.	16qqdd/	.	.	.	.
.	16qqcc#X/JJ	.	.	.	.
4G 4D 4GG/	2.dd\	.	.	.	.
4g 4d 4B\	.	.	.	.	.
4g 4d 4B\	.	.	.	.	.
=6	=6	=6	=6	=6	=6
.	16qqee/LL	.	.	.	.
.	16qqdd/	.	.	.	.
.	16qqcc#X/JJ	.	.	.	.
4G 4D 4GG/	2.dd\	.	.	.	.
4g 4d 4B\	.	.	.	.	.
4g 4d 4B\	.	.	.	.	.
!!LO:LB:g=original
=7	=7	=7	=7	=7	=7
.	16qqee/LL	.	.	.	.
.	16qqdd/	.	.	.	.
.	16qqcc#X/JJ	.	.	.	.
4G 4D 4GG/	8.dd\L	.	.	.	.
.	16ccn\K	.	.	.	.
4f#X 4d 4c\	8.b\	.	.	.	.
.	16a\K	.	.	.	.
4f# 4d 4c\	8.b\	.	.	.	.
.	16cc\Jk	.	.	.	.
=8	=8	=8	=8	=8	=8
4G 4D 4GG/	8.dd\L	.	.	.	.
.	16cc\K	.	.	.	.
4d 4B 4G\	8.b\	.	.	.	.
.	16a\Jk	.	.	.	.
4d 4B 4G\	8g/	.	.	.	.
.	8r	.	.	.	.
=9:|!|:	=9:|!|:	=9:|!|:	=9:|!|:	=9:|!|:	=9:|!|:
*>B	*>B	*	*	*	*
4GG/	8a\L	.	.	p	.
.	8cc\	.	.	.	.
4f 4c 4A\	8ff\	.	.	.	.
.	8a\	.	.	.	.
4f 4c 4A\	8cc\	.	.	.	.
.	8ff\J	.	.	.	.
=10	=10	=10	=10	=10	=10
4GG/	8ee\L	.	.	.	.
.	8cc\J	.	.	.	.
4e 4c 4G\	4g/	.	.	.	.
4e 4c 4G\	4g/	.	.	.	.
=11	=11	=11	=11	=11	=11
4GG/	8f/L	.	.	.	.
.	8g/	.	.	.	.
4d 4B 4G\	8b/	.	.	.	.
.	8f/	.	.	.	.
4d 4B 4G\	8g/	.	.	.	.
.	8b/J	.	.	.	.
=12	=12	=12	=12	=12	=12
4C/	8cc/L	.	.	.	.
.	8e/J	.	.	.	.
4c 4G 4E\	4g/	.	.	.	.
4c 4G 4E\	4g/	.	.	.	.
!!LO:LB:g=original
=13	=13	=13	=13	=13	=13
4FF/	8a\L	.	.	.	.
.	8cc\	.	.	.	.
4f 4c 4A\	8ff\	.	.	.	.
.	8a\	.	.	.	.
4f 4c 4A\	8cc\	.	.	.	.
.	8ff\J	.	.	.	.
=14	=14	=14	=14	=14	=14
4GG/	8ee\L	.	.	.	.
.	8cc\J	.	.	.	.
4e 4c 4G\	4g/	.	.	.	.
4e 4c 4G\	4g/	.	.	.	.
=15	=15	=15	=15	=15	=15
4GG/	8f/L	.	.	.	.
.	8g/	.	.	.	.
4d 4B 4G\	8b/	.	.	.	.
.	8f/	.	.	.	.
4d 4B 4G\	8g/	.	.	.	.
.	8b/J	.	.	.	.
=16	=16	=16	=16	=16	=16
4C/	2cc 2e/	.	.	.	.
4c 4G\	.	.	.	.	.
4c 4G\	4r	.	.	.	.
=17:|!|:	=17:|!|:	=17:|!|:	=17:|!|:	=17:|!|:	=17:|!|:
*>C	*>C	*	*	*	*
4G 4D 4GG/	16bLL 16g\	.	.	f	.
.	16dd\JJ	.	.	.	.
.	8r	.	.	.	.
4G 4D 4GG^/	2gg 2b 2g^\	.	.	.	.
4d 4B 4G\	.	.	.	.	.
=18	=18	=18	=18	=18	=18
4G 4D 4GG/	16ff#XLL 16a\	.	.	.	.
.	16dd\JJ	.	.	.	.
.	8r	.	.	.	.
4G 4D 4GG^/	2a 2f#X 2d^/	.	.	.	.
4A 4F#X 4D\	.	.	.	.	.
!!LO:LB:g=original
=19	=19	=19	=19	=19	=19
4G 4E 4GG/	16gLL 16e/	.	.	.	.
.	16cc/JJ	.	.	.	.
.	8r	.	.	.	.
4c 4G 4E\	8ee 8cc 8g\	.	.	.	.
.	8r	.	.	.	.
4c 4G 4E\	8ee 8cc 8g\	.	.	.	.
.	8r	.	.	.	.
=20	=20	=20	=20	=20	=20
4G 4D 4GG/	16dd\LL	.	.	.	.
.	16b\JJ	.	.	.	.
.	8r	.	.	.	.
4d 4B 4G\	4.g/	.	.	.	.
4d 4B 4G\	.	.	.	.	.
.	8r	.	.	.	.
=21	=21	=21	=21	=21	=21
4D 4DD/	(8a/L	.	.	.	.
.	8f#X/)	.	.	.	.
4A 4F#X\	8d'/	.	.	.	.
.	8e'/	.	.	.	.
4d 4A 4F#\	8f#'/	.	.	.	.
.	8g'/J	.	.	.	.
=22	=22	=22	=22	=22	=22
4AA 4AAA/	(8a/L	.	.	.	.
.	8g#X/)	.	.	.	.
4e 4c 4A\	8a'/	.	.	.	.
.	8b'/	.	.	.	.
4e 4c 4A\	8cc'/	.	.	.	.
.	8dd'/J	.	.	.	.
=23	=23	=23	=23	=23	=23
4D 4DD/	(8ee\L	.	.	.	.
.	8dd\)	.	.	.	.
4d 4c 4A\	8cc'\	.	.	.	.
.	8dd'\	.	.	.	.
4d 4c 4A\	8ee'\	.	.	.	.
.	8ff#X'\J	.	.	.	.
=24	=24	=24	=24	=24	=24
*>C1	*>C1	*	*	*	*
4GG 4GGG/	8ggL 8dd 8b\	.	.	.	.
.	8bb\J	.	.	.	.
4BB 4BBB/	8dd 8g 8d/	.	.	.	.
.	8r	.	.	.	.
4D 4DD/	8dd 8a 8f#X 8d/	.	.	.	.
.	8r	.	.	.	.
=25:|!	=25:|!	=25:|!	=25:|!	=25:|!	=25:|!
*>C2	*>C2	*	*	*	*
*	*^	*	*	*	*
4GG 4GGG/	[2.ggTT/	4dd 4b\	.	.	.	.
4r	.	4r	.	.	.	.
4r	.	4r	.	.	.	.
*	*v	*v	*	*	*	*
!!LO:LB:g=original
=26	=26	=26	=26	=26	=26
*>D	*>D	*	*	*	*
8AL 8G\	2.ggTT\_	.	.	.	.
8c\	.	.	.	.	.
8f\	.	.	.	.	.
8A\	.	.	.	.	.
8c\	.	.	.	.	.
8f\J	.	.	.	.	.
=27	=27	=27	=27	=27	=27
8e\L	2.ggTTT\_	.	.	.	.
8c\J	.	.	.	.	.
4G\	.	.	.	.	.
4G\	.	.	.	.	.
=28	=28	=28	=28	=28	=28
8FL 8D\	2.ggTTT\]	.	.	.	.
8G\	.	.	.	.	.
8B\	.	.	.	.	.
8F\	.	.	.	.	.
8G\	.	.	.	.	.
8B\J	.	.	.	.	.
=29	=29	=29	=29	=29	=29
8cL 8C\	[2.cccTT\	.	.	.	.
8E\J	.	.	.	.	.
4G\	.	.	.	.	.
4G\	.	.	.	.	.
=30	=30	=30	=30	=30	=30
*	*	*	*	*	*^
8AL 8C\	2.cccTTT\_	.	.	.	.	1
8c\	.	.	.	.	.	2
8f\	.	.	.	.	.	1
8A\	.	.	.	.	.	4
8c\	.	.	.	.	.	.
8f\J	.	.	.	.	.	.
=31	=31	=31	=31	=31	=31	=31
8e\L	2.cccTTT\]	.	.	.	.	.
8c\J	.	.	.	.	.	.
4G\	.	.	.	.	.	.
4G\	.	.	.	.	.	.
=32	=32	=32	=32	=32	=32	=32
8FL 8GG\	2.gggTT\	.	.	.	.	1
8G\	.	.	.	.	.	2
8B\	.	.	.	.	.	1
8F\	.	.	.	.	.	.
8G\	.	.	.	.	.	.
8B\J	.	.	.	.	.	.
*	*	*	*	*	*v	*v
=33	=33	=33	=33	=33	=33
*	*8va	*	*	*	*
2c 2G 2E 2C\	4cccc\	.	.	.	.
*	*X8va	*	*	*	*
.	4r	.	.	.	.
4r	4r	.	.	.	.
!!LO:PB:g=original
=34	=34	=34	=34	=34	=34
.	16qqdd/LL	.	.	.	.
.	16qqcc/	.	.	.	.
.	16qqb/JJ	.	.	.	.
4C 4GG 4CC/	2.cc\	.	.	.	.
4c 4G 4E\	.	.	.	.	.
4c 4G 4E\	.	.	.	.	.
=35	=35	=35	=35	=35	=35
.	16qqdd/LL	.	.	.	.
.	16qqcc/	.	.	.	.
.	16qqb/JJ	.	.	.	.
4C 4GG 4CC/	2.cc\	.	.	.	.
4c 4G 4E\	.	.	.	.	.
4c 4G 4E\	.	.	.	.	.
=36	=36	=36	=36	=36	=36
.	16qqdd/LL	.	.	.	.
.	16qqcc/	.	.	.	.
.	16qqb/JJ	.	.	.	.
4C 4GG 4CC/	8.cc\L	.	.	.	.
.	16dd\K	.	.	.	.
4c 4G 4E\	8.ee\	.	.	.	.
.	16ff\K	.	.	.	.
4c 4G 4E\	8.gg\	.	.	.	.
.	16aa\Jk	.	.	.	.
=37	=37	=37	=37	=37	=37
4C 4GG 4CC/	8.gg\L	.	.	.	.
.	16ff\K	.	.	.	.
4c 4G 4E\	8.ee\	.	.	.	.
.	16dd\Jk	.	.	.	.
4c 4G 4E\	8cc\	.	.	.	.
.	8r	.	.	.	.
=38	=38	=38	=38	=38	=38
.	16qqee/LL	.	.	.	.
.	16qqdd/	.	.	.	.
.	16qqcc#X/JJ	.	.	.	.
4G 4D 4GG/	2.dd\	.	.	.	.
4g 4d 4B\	.	.	.	.	.
4g 4d 4B\	.	.	.	.	.
=39	=39	=39	=39	=39	=39
.	16qqee/LL	.	.	.	.
.	16qqdd/	.	.	.	.
.	16qqcc#X/JJ	.	.	.	.
4G 4D 4GG/	2.dd\	.	.	.	.
4g 4d 4B\	.	.	.	.	.
4g 4d 4B\	.	.	.	.	.
!!LO:LB:g=original
=40	=40	=40	=40	=40	=40
.	16qqee/LL	.	.	.	.
.	16qqdd/	.	.	.	.
.	16qqcc#X/JJ	.	.	.	.
4G 4D 4GG/	8.dd\L	.	.	.	.
.	16ccn\K	.	.	.	.
4f#X 4d 4c\	8.b\	.	.	.	.
.	16a\K	.	.	.	.
4f# 4d 4c\	8.b\	.	.	.	.
.	16cc\Jk	.	.	.	.
=41	=41	=41	=41	=41	=41
4G 4D 4GG/	8.dd\L	.	.	.	.
.	16cc\K	.	.	.	.
4d 4B 4G\	8.b\	.	.	.	.
.	16a\Jk	.	.	.	.
4d 4B 4G\	8g/	.	.	.	.
.	8r	.	.	.	.
=42	=42	=42	=42	=42	=42
4GG/	8a\L	.	.	p	.
.	8cc\	.	.	.	.
4f 4c 4A\	8ff\	.	.	.	.
.	8a\	.	.	.	.
4f 4c 4A\	8cc\	.	.	.	.
.	8ff\J	.	.	.	.
=43	=43	=43	=43	=43	=43
4GG/	8ee\L	.	.	.	.
.	8cc\J	.	.	.	.
4e 4c 4G\	4g/	.	.	.	.
4e 4c 4G\	4g/	.	.	.	.
=44	=44	=44	=44	=44	=44
4GG/	8f/L	.	.	.	.
.	8g/	.	.	.	.
4d 4B 4G\	8b/	.	.	.	.
.	8f/	.	.	.	.
4d 4B 4G\	8g/	.	.	.	.
.	8b/J	.	.	.	.
=45	=45	=45	=45	=45	=45
4C/	8cc/L	.	.	.	.
.	8e/J	.	.	.	.
4c 4G 4E\	4g/	.	.	.	.
4c 4G 4E\	4g/	.	.	.	.
=46	=46	=46	=46	=46	=46
4FF/	8a\L	.	.	.	.
.	8cc\	.	.	.	.
4f 4c 4A\	8ff\	.	.	.	.
.	8a\	.	.	.	.
4f 4c 4A\	8cc\	.	.	.	.
.	8ff\J	.	.	.	.
!!LO:LB:g=original
=47	=47	=47	=47	=47	=47
4GG/	8ee\L	.	.	.	.
.	8cc\J	.	.	.	.
4e 4c 4G\	4g/	.	.	.	.
4e 4c 4G\	4g/	.	.	.	.
=48	=48	=48	=48	=48	=48
4GG/	8f/L	.	.	.	.
.	8g/	.	.	.	.
4d 4B 4G\	8b/	.	.	.	.
.	8f/	.	.	.	.
4d 4B 4G\	8g/	.	.	.	.
.	8b/J	.	.	.	.
=49	=49	=49	=49	=49	=49
4C/	2.cc 2.e/	.	.	.	.
4c 4G\	.	.	.	.	.
4c 4G\	.	.	.	.	.
=50	=50	=50	=50	=50	=50
4G 4D 4GG/	16bLL 16g\	.	.	f	.
.	16dd\JJ	.	.	.	.
.	8r	.	.	.	.
4G 4D 4GG^/	2gg 2b 2g^\	.	.	.	.
4d 4B 4G\	.	.	.	.	.
=51	=51	=51	=51	=51	=51
4G 4D 4GG/	16ff#XLL 16a\	.	.	.	.
.	16dd\JJ	.	.	.	.
.	8r	.	.	.	.
4G 4D 4GG^/	2a 2f#X 2d^/	.	.	.	.
4A 4F#X 4D\	.	.	.	.	.
=52	=52	=52	=52	=52	=52
4G 4E 4GG/	16gLL 16e/	.	.	.	.
.	16cc/JJ	.	.	.	.
.	8r	.	.	.	.
4c 4G 4E\	8ee 8cc 8g\	.	.	.	.
.	8r	.	.	.	.
4c 4G 4E\	8ee 8cc 8g\	.	.	.	.
.	8r	.	.	.	.
=53	=53	=53	=53	=53	=53
4G 4D 4GG/	16dd\LL	.	.	.	.
.	16b\JJ	.	.	.	.
.	8r	.	.	.	.
4d 4B 4G\	4.g/	.	.	.	.
4d 4B 4G\	.	.	.	.	.
.	8r	.	.	.	.
!!LO:LB:g=original
=54	=54	=54	=54	=54	=54
4D 4DD/	(8a/L	.	.	.	.
.	8f#X/)	.	.	.	.
4A 4F#X\	8d'/	.	.	.	.
.	8e'/	.	.	.	.
4d 4A 4F#\	8f#'/	.	.	.	.
.	8g'/J	.	.	.	.
=55	=55	=55	=55	=55	=55
4AA 4AAA/	(8a/L	.	.	.	.
.	8g#X/)	.	.	.	.
4e 4c 4A\	8a'/	.	.	.	.
.	8b'/	.	.	.	.
4e 4c 4A\	8cc'/	.	.	.	.
.	8dd'/J	.	.	.	.
=56	=56	=56	=56	=56	=56
4D 4DD/	(8ee\L	.	.	.	.
.	8dd\)	.	.	.	.
4d 4c 4A\	8cc'\	.	.	.	.
.	8dd'\	.	.	.	.
4d 4c 4A\	8ee'\	.	.	.	.
.	8ff#X'\J	.	.	.	.
=57	=57	=57	=57	=57	=57
*	*^	*	*	*	*
4GG 4GGG/	[2.ggTT/	4dd 4b\	.	.	.	.
4r	.	4r	.	.	.	.
4r	.	4r	.	.	.	.
*	*v	*v	*	*	*	*
=58	=58	=58	=58	=58	=58
8AL 8G\	2.ggTTT\_	.	.	.	.
8c\	.	.	.	.	.
8f\	.	.	.	.	.
8A\	.	.	.	.	.
8c\	.	.	.	.	.
8f\J	.	.	.	.	.
=59	=59	=59	=59	=59	=59
8e\L	2.ggTTT\_	.	.	.	.
8c\J	.	.	.	.	.
4G\	.	.	.	.	.
4G\	.	.	.	.	.
=60	=60	=60	=60	=60	=60
8FL 8D\	2.ggTTT\]	.	.	.	.
8G\	.	.	.	.	.
8B\	.	.	.	.	.
8F\	.	.	.	.	.
8G\	.	.	.	.	.
8B\J	.	.	.	.	.
!!LO:LB:g=original
=61	=61	=61	=61	=61	=61
8cL 8C\	[2.cccTT\	.	.	.	.
8E\J	.	.	.	.	.
4G\	.	.	.	.	.
4G\	.	.	.	.	.
=62	=62	=62	=62	=62	=62
8AL 8C\	2.cccTTT\_	.	.	.	.
8c\	.	.	.	.	.
8f\	.	.	.	.	.
8A\	.	.	.	.	.
8c\	.	.	.	.	.
8f\J	.	.	.	.	.
=63	=63	=63	=63	=63	=63
8e\L	2.cccTTT\]	.	.	.	.
8c\J	.	.	.	.	.
4G\	.	.	.	.	.
4G\	.	.	.	.	.
=64	=64	=64	=64	=64	=64
8FL 8GG\	2.gggTT\	.	.	.	.
8G\	.	.	.	.	.
8B\	.	.	.	.	.
8F\	.	.	.	.	.
8G\	.	.	.	.	.
8B\J	.	.	.	.	.
=65	=65	=65	=65	=65	=65
*	*8va	*	*	*	*
2c 2G 2E 2C\	4cccc\	.	.	.	.
*	*X8va	*	*	*	*
.	4r	.	.	.	.
4r	4r	.	.	.	.
=66	=66	=66	=66	=66	=66
4G 4F 4BB 4GG/	8gg\L	.	.	ff	.
.	8aa\	.	.	.	.
4G 4F 4BB 4GG/	8bb\	.	.	.	.
.	8ccc\	.	.	.	.
4G 4F 4BB 4GG/	8ddd\	.	.	.	.
.	8bb\J	.	.	.	.
=67	=67	=67	=67	=67	=67
4c 4G 4E 4C\	4ccc 4cc\	.	.	.	.
4r	4r	.	.	.	.
4r;	4r;	.	.	.	.
!!LO:PB:g=original
=68||	=68||	=68||	=68||	=68||	=68||
*k[b-]	*k[b-]	*	*	*	*
*M4/4	*M4/4	*	*	*	*
*met(c)	*met(c)	*	*	*	*
*clefG2	*	*	*	*	*
!!LO:TX:B:a:t=Allegro.
16f/LL	16ff\LL	.	.	f	.
16cc/	16ccc\	.	.	.	.
16a/	16aa\	.	.	.	.
16g/JJ	16gg\JJ	.	.	.	.
16f/LL	16ff\LL	.	.	.	.
16g/	16gg\	.	.	.	.
16f/	16ff\	.	.	.	.
16e/JJ	16ee\JJ	.	.	.	.
16d/LL	16dd\LL	.	.	.	.
16a/	16aa\	.	.	.	.
16f/	16ff\	.	.	.	.
16e/JJ	16ee\JJ	.	.	.	.
16d/LL	16dd\LL	.	.	.	.
16e/	16ee\	.	.	.	.
16d/	16dd\	.	.	.	.
16c/JJ	16cc\JJ	.	.	.	.
=69	=69	=69	=69	=69	=69
16B-/LL	16b-\LL	.	.	.	.
16f/	16ff\	.	.	.	.
16d/	16dd\	.	.	.	.
16c/JJ	16cc\JJ	.	.	.	.
*clefF4	*	*	*	*	*
16B-\LL	16b-\LL	.	.	.	.
16c\	16cc\	.	.	.	.
16B-\	16b-\	.	.	.	.
16A\JJ	16a\JJ	.	.	.	.
16G\LL	16g/LL	.	.	.	.
16B-\	16b-/	.	.	.	.
16G\	16g/	.	.	.	.
16F\JJ	16f/JJ	.	.	.	.
16E\LL	16e/LL	.	.	.	.
16F\	16f/	.	.	.	.
16E\	16e/	.	.	.	.
16D\JJ	16d/JJ	.	.	.	.
!!LO:LB:g=original
=70	=70	=70	=70	=70	=70
8C#X'\L	8c#X'/L	.	.	.	.
(16E\L	(16e/L	.	.	.	.
16A\JJ)	16a/JJ)	.	.	.	.
8c#X'\L	8cc#X'\L	.	.	.	.
8e'\J	8ee'\J	.	.	.	.
8a'\	8aa'\	.	.	.	.
8AL 8AA'/	8ccc#XL 8aa 8ee'\	.	.	.	.
8C# 8CC#X'/	8eee 8aa 8ee'\	.	.	.	.
8EJ 8EE'/	8ccc#J 8aa 8ee'\	.	.	.	.
=71	=71	=71	=71	=71	=71
*	*8va	*	*	*	*
8AA 8AAA/	8aaa 8eee 8ccc#X 8aa\	.	.	.	.
*	*X8va	*	*	*	*
8r	16r	.	.	.	.
!	!LO:TX:t=P:problem:cały tekst zapisany ponad pięciolinią	!	!	!	!
.	16a/	Za-	.	.	.
4r	8.ee^\L	-sło-	.	.	.
.	16dd\Jk	-nę	.	.	.
2r	(4cc#X\	spuś-	.	.	.
.	8dd\L)	-cić	.	.	.
.	8ee'\J	co	.	.	.
=72	=72	=72	=72	=72	=72
*	*^	*	*	*	*
4r	8a/	4ryy	tchu.	.	.	.
.	16r	.	.	.	.	.
.	16a/	.	.	.	.	.
(4d 4F#X\	(8.dd^/L	4a\	.	.	.	.
.	16cc/Jk	.	.	.	.	.
8d 8G\)	8.b-/L)	8g\	.	.	.	.
8r	.	8r	.	.	.	.
.	(16g/Jk	.	.	.	.	.
4B- 4G 4C\	8.cc/L)	4e\	.	.	.	.
.	16cc/Jk	.	.	.	.	.
!!LO:LB:g=original
=73	=73	=73	=73	=73	=73	=73
8A 8F\	8f/	8f\	.	.	.	.
8cL 8A'\	(16ff\LL	8ryy	.	.	.	.
.	16cc\JJ	.	.	.	.	.
8c 8B-'\	16ee\LL	2.ryy	.	.	.	.
.	16cc\	.	.	.	.	.
8cJ 8A'\	16ff\	.	.	.	.	.
.	16cc\JJ	.	.	.	.	.
8cL 8B-'\	16ee\LL	.	.	.	.	.
.	16cc\	.	.	.	.	.
8cJ 8A'\	16ff\	.	.	.	.	.
.	16cc\JJ	.	.	.	.	.
8cL 8B-'\	16ee\LL	.	.	.	.	.
.	16cc\	.	.	.	.	.
8cJ 8A'\	16ff\	.	.	.	.	.
.	16cc\JJ	.	.	.	.	.
*	*v	*v	*	*	*	*
=74	=74	=74	=74	=74	=74
8c 8B-\	8cc 8g 8e/)	.	.	.	.
(16B-\LL	8ee 8cc 8g\	.	.	.	.
16c\JJ	.	.	.	.	.
16B-\LL	8ffL 8cc 8a\	.	.	.	.
16c\	.	.	.	.	.
16B-\	8eeJ 8cc 8g\	.	.	.	.
16c\JJ	.	.	.	.	.
16B-\LL	8ffL 8cc 8a\	.	.	.	.
16c\	.	.	.	.	.
16B-\	8eeJ 8cc 8g\	.	.	.	.
16c\JJ	.	.	.	.	.
16B-\LL	8ffL 8cc 8a\	.	.	.	.
16c\	.	.	.	.	.
16B-\	8eeJ 8cc 8g\	.	.	.	.
16c\JJ	.	.	.	.	.
!!LO:LB:g=original
=75	=75	=75	=75	=75	=75
8A\)	8ff 8cc 8a\	.	.	.	.
8c 8A'\	16ff\LL	.	.	.	.
.	16cc\JJ	.	.	.	.
8cL 8B-'\	16ee\LL	.	.	.	.
.	16cc\	.	.	.	.
8cJ 8A'\	16ff\	.	.	.	.
.	16cc\JJ	.	.	.	.
8cL 8B-'\	16ee\LL	.	.	.	.
.	16cc\	.	.	.	.
8cJ 8A'\	16ff\	.	.	.	.
.	16cc\JJ	.	.	.	.
8cL 8B-'\	16ee\LL	.	.	.	.
.	16cc\	.	.	.	.
8cJ 8A'\	16ff\	.	.	.	.
.	16cc\JJ	.	.	.	.
=76	=76	=76	=76	=76	=76
8c 8B-'\	8cc 8g 8e/	.	.	.	.
(16B-\LL	8ee 8cc 8g\	.	.	.	.
16c\JJ	.	.	.	.	.
16B-\LL	8ffL 8cc 8a\	.	.	.	.
16c\	.	.	.	.	.
16B-\	8eeJ 8cc 8g\	.	.	.	.
16c\JJ	.	.	.	.	.
16B-\LL	8ffL 8cc 8a\	.	.	.	.
16c\	.	.	.	.	.
16B-\	8eeJ 8cc 8g\	.	.	.	.
16c\JJ	.	.	.	.	.
16B-\LL	8ffL 8cc 8a\	.	.	.	.
16c\	.	.	.	.	.
16B-\	8eeJ 8cc 8g\	.	.	.	.
16c\JJ)	.	.	.	.	.
*clefG2	*	*	*	*	*
!!LO:LB:g=original
=77	=77	=77	=77	=77	=77
*^	*	*	*	*	*
8r	2A\	8ff 8cc 8a\	.	.	.	.
!	!	!LO:TUP:a:problem:klamra łukowa	!	!	!	!
8aL 8f 8c/	.	24ff\LL	.	.	.	.
.	.	24gg\	.	.	.	.
.	.	24ff\JJ	.	.	.	.
8a 8f 8c/	.	8ee'\L	.	.	.	.
8aJ 8f 8c/	.	(8ff\J	.	.	.	.
8r	2B-\	8aa\L)	.	.	.	.
8gL 8e 8c/	.	8gg 8cc'\	.	.	.	.
8g 8e 8c/	.	8ee 8cc'\	.	.	.	.
8gJ 8e 8c/	.	8cc'\J	.	.	.	.
=78	=78	=78	=78	=78	=78	=78
8r	2A\	8cccL 8ff 8cc\	.	.	.	.
8aL 8f 8c/	.	(24ff\L	.	.	.	.
.	.	24gg\	.	.	.	.
.	.	24ff\JJ	.	.	.	.
8a 8f 8c/	.	8ee\L)	.	.	.	.
8aJ 8f 8c/	.	(8ff\J	.	.	.	.
8B-/L	2ryy	8aa\L)	.	.	>	.
8gJ 8e 8c/	.	8gg 8cc'\	.	.	.	.
8G/L	.	8ee 8cc'\	.	.	.	.
8eJ 8c 8B-/	.	8cc'\J	.	.	]	.
*v	*v	*	*	*	*	*
*clefF4	*	*	*	*	*
=79	=79	=79	=79	=79	=79
4f 4c 4A 4F\	(16a\LL	.	.	p	.
.	16b-\	.	.	.	.
.	16cc\	.	.	.	.
.	16dd\JJ	.	.	.	.
8fL 8c 8F'\	16ee\LL	.	.	.	.
.	16ff\	.	.	.	.
8cJ 8A 8F'\	16gg\	.	.	.	.
.	16aa\JJ	.	.	.	.
4B- 4E 4C#X\	16bb-\LL	.	.	.	.
.	16aa\	.	.	.	.
.	16gg\	.	.	.	.
.	16ff\JJ	.	.	.	.
8B-L 8G 8C#'\	16ee\LL	.	.	.	.
.	16gg\	.	.	.	.
8B-J 8G 8C#'\	16ff\	.	.	.	.
.	16ee\JJ	.	.	.	.
!!LO:PB:g=original
=80	=80	=80	=80	=80	=80
4A 4F 4D\	16dd\LL	.	.	.	.
.	16cc#X\	.	.	.	.
.	16dd\	.	.	.	.
.	16ee\JJ	.	.	.	.
8dL 8A 8D'\	16gg\LL	.	.	.	.
.	16ff\	.	.	.	.
8dJ 8A 8D'\	16ee\	.	.	.	.
.	16dd\JJ	.	.	.	.
4e-X 4A 4F#X\	16ccn\LL	.	.	.	.
.	16bn\	.	.	.	.
.	16cc\	.	.	.	.
.	16ee-X\JJ	.	.	.	.
8dL 8A 8F#'\	16dd\LL	.	.	.	.
.	16cc\	.	.	.	.
8dJ 8c 8F#'\	16b-X\	.	.	.	.
.	16a\JJ	.	.	.	.
=81	=81	=81	=81	=81	=81
8G\L	16b-/LL	.	.	.	.
.	16a/	.	.	.	.
8d 8B-'\	16g/	.	.	.	.
.	16a/JJ	.	.	.	.
8d 8B-'\	16b-\LL	.	.	.	.
.	16a\	.	.	.	.
8dJ 8B-'\	16b-\	.	.	.	.
.	16cc\JJ	.	.	.	.
8BB-\L	16dd\LL	.	.	.	.
.	16cc#X\	.	.	.	.
8G 8D'\	16dd\	.	.	.	.
.	16ee\JJ	.	.	.	.
8G 8D'\	16gg\LL	.	.	.	.
.	16ff\	.	.	.	.
8GJ 8D'\	16ee\	.	.	.	.
.	16dd\JJ	.	.	.	.
!!LO:LB:g=original
=82	=82	=82	=82	=82	=82
8C\L	16ccn\LL	.	.	.	.
.	16ff\	.	.	.	.
8AJ 8F\	16aa\	.	.	.	.
.	16gg\JJ	.	.	.	.
8C\L	16ff\LL	.	.	.	.
.	16ee\	.	.	.	.
8AJ 8F\	16dd\	.	.	.	.
.	16cc\JJ	.	.	.	.
8C\L	16cc#X\LL	.	.	.	.
.	16dd\	.	.	.	.
8B-J 8G\	16ee\	.	.	.	.
.	16dd\JJ	.	.	.	.
8C\L	16ccn/LL	.	.	.	.
.	16b-/	.	.	.	.
8B-J 8E\	16a/	.	.	.	.
.	16g/JJ)	.	.	.	.
=83	=83	=83	=83	=83	=83
8A 8F'\	8f/	.	.	.	.
8r	8r	.	.	.	.
8AL 8F#X 8D# 8C'\	8cccL 8ff#X 8cc'\	.	.	ff	.
16AL 16F# 16D# 16C'\	16cccL 16ff# 16cc'\	.	.	.	.
16AJJ 16F# 16D# 16C'\	16cccJJ 16ff# 16cc'\	.	.	.	.
8A 8F# 8D# 8C'\	(8cccL 8ff# 8cc^\	.	.	.	.
8r	16bb-\L	.	.	.	.
.	16aa\JJ)	.	.	.	.
8B-L 8E 8C'\	(8gg\L	.	.	.	.
8B-J 8E 8C'\	16aa\L	.	.	.	.
.	16gg\JJ	.	.	.	.
=84	=84	=84	=84	=84	=84
8A 8F\	8ff\)	.	.	.	.
8r	8r	.	.	.	.
8AL 8F#X 8D# 8C'\	8cccL 8ff#X 8cc'\	.	.	.	.
16AL 16F# 16D# 16C'\	16cccL 16ff# 16cc'\	.	.	.	.
16AJJ 16F# 16D# 16C'\	16cccJJ 16ff# 16cc'\	.	.	.	.
8A 8F# 8D# 8C'\	(8cccL 8ff# 8cc^\	.	.	.	.
8r	16bb-\L	.	.	.	.
.	16aa\JJ)	.	.	.	.
8B-L 8E 8C'\	(8gg\L	.	.	.	.
8B-J 8E 8C'\	16aa\L	.	.	.	.
.	16gg\JJ)	.	.	.	.
!!LO:LB:g=original
=85	=85	=85	=85	=85	=85
8F 8FF/	4ff^^\	.	.	sf	.
16ALL 16F\	.	.	.	.	.
16c\JJ	.	.	.	.	.
16ALL 16F\	(16gg\LL	.	.	.	.
16c\	16ff\	.	.	.	.
16A 16F\	16ee\	.	.	.	.
16c\JJ	16ff\JJ	.	.	.	.
8A 8F\	8ddd'\L)	.	.	.	.
8cL 8A 8F\	8ccc'\	.	.	.	.
8c 8A 8F\	8aa'\	.	.	.	.
8d-J 8B- 8F\	(8ee\J	.	.	.	.
=86	=86	=86	=86	=86	=86
8cL 8A 8F\	8gg\L)	.	.	.	.
8c 8A 8F\	8ff'\	.	.	.	.
8c 8A 8F\	8cc'\	.	.	.	.
8dJ 8G#X 8F\	(<8bn\J	.	.	.	.
8c 8A 8F\	16dd/LL	.	.	.	.
.	16cc/)	.	.	.	.
8AL 8AA\	16a/	.	.	.	.
.	16f/JJ	.	.	.	.
8c 8C\	16a/LL	.	.	.	.
.	16f/	.	.	.	.
8AJ 8AA\	16a/	.	.	.	.
.	16cc/JJ	.	.	.	.
=87	=87	=87	=87	=87	=87
8F 8FF/	8ff 8a 8f\	.	.	.	.
8r	8r	.	.	.	.
4r	8r	.	.	.	.
!	!LO:TX:B:b:t=Recit.	!	!	!	!
.	8cc\	Niech	.	.	.
2r	4.ff^\	ry-	.	.	.
.	8cc\	-cerz	.	.	.
!!LO:LB:g=original
=88	=88	=88	=88	=88	=88
1r	4.a/	Djan-	.	.	.
.	8a/	-nie	.	.	.
.	8b-/L	ra-	.	.	.
.	8a/	-czy	.	.	.
.	8b-/	po-	.	.	.
.	8cc/J	-dać	.	.	.
=89	=89	=89	=89	=89	=89
!!LO:TX:B:a:t=Allegro.
8r	8f/	dłoń	.	<	.
16F\LL	16f/LL	.	.	.	.
16G\JJ	16g/JJ	.	.	.	.
16A\LL	16a/LL	.	.	.	.
16G\	16g/	.	.	.	.
16A\	16a/	.	.	.	.
16B-\JJ	16b-/JJ	.	.	.	.
16c\LL	16cc\LL	.	.	.	.
16d\	16dd\	.	.	.	.
16c\	16cc\	.	.	.	.
16B-\JJ	16b-\JJ	.	.	.	.
16A\LL	16a\LL	.	.	.	.
16B-\	16b-\	.	.	.	.
16c\	16cc\	.	.	.	.
16d\JJ	16dd\JJ	.	.	.	.
*clefG2	*	*	*	*	*
=90	=90	=90	=90	=90	=90
8d/L	8dddL 8dd'\	.	.	.	.
8e-X/	8eee-X 8ee-X'\	.	.	.	.
8en/	8eeen 8een'\	.	.	.	.
8f/J	8fffJ 8ff'\	.	.	.	.
4f#X^/	4fff#X 4ff#X^^\	.	.	.	.
4g^/	4ggg 4gg^^\	.	.	.	.
*clefF4	*	*	*	*	*
!!LO:LB:g=original
=91	=91	=91	=91	=91	=91
*ped	*8va	*	*	*	*
8CL 8CC/	16aaaLL 16fff#X 16eee-X 16ccc\	.	.	ff	.
.	16aa\	.	.	.	.
8E-X 8EE-X/	16aaa 16fff# 16eee- 16ccc\	.	.	.	.
.	16aa\JJ	.	.	.	.
8F#X 8FF#X/	16aaaLL 16fff# 16eee- 16ccc\	.	.	.	.
.	16aa\	.	.	.	.
8AJ 8AA/	16aaa 16fff# 16eee- 16ccc\	.	.	.	.
.	16aa\JJ	.	.	.	.
8cL 8C/	16aaaLL 16fff# 16eee- 16ccc\	.	.	.	.
.	16aa\	.	.	.	.
8A 8AA/	16aaa 16fff# 16eee- 16ccc\	.	.	.	.
.	16aa\JJ	.	.	.	.
8F# 8FF#/	16aaaLL 16fff# 16eee- 16ccc\	.	.	.	.
.	16aa\	.	.	.	.
8E-J 8EE-/	16aaa 16fff# 16eee- 16ccc\	.	.	.	.
.	16aa\JJ	.	.	.	.
=92	=92	=92	=92	=92	=92
8C 8CC/	16aaaLL 16fff#X 16eee-X 16ccc\	.	.	.	.
.	16aa\	.	.	.	.
8e-XL 8E-X'\	16aaa 16fff# 16eee- 16ccc\	.	.	.	.
.	16aa\JJ	.	.	.	.
8A 8AA'\	16aaaLL 16fff# 16eee- 16ccc\	.	.	.	.
.	16aa\	.	.	.	.
8cJ 8C'\	16aaa 16fff# 16eee- 16ccc\	.	.	.	.
.	16aa\JJ	.	.	.	.
8F#XL 8FF#X'/	8aaa' 8fff# 8eee- 8ccc\	.	.	.	.
8A 8AA'/	8aaa'L 8fff# 8eee- 8ccc 8aa\	.	.	.	.
8E- 8EE-X'/	8aaa' 8fff# 8eee- 8ccc 8aa\	.	.	.	.
8cJ 8C'/	8aaa'J 8fff# 8eee- 8ccc 8aa\	.	.	.	.
!!LO:PB:g=original
=93||	=93||	=93||	=93||	=93||	=93||
*k[]	*k[]	*	*	*	*
*Xped	*	*	*	*	*
*M9/8	*M9/8	*	*	*	*
!!LO:TX:B:a:t=Andante.
8C 8CC/	8aaa 8fff#X 8eee-X 8ccc 8aa\	.	.	.	.
*	*X8va	*	*	*	*
8r	8r	.	.	.	.
8r	8r	.	.	.	.
4r	4r	.	.	.	.
8r	8r	.	.	.	.
8c'\L	8cc'\L	.	.	p	.
8B'\	8b'\	.	.	.	.
8c'\J	8cc'\J	.	.	.	.
=94	=94	=94	=94	=94	=94
[4E\	[4en/	.	.	.	.
16E\]	16e/LL]	.	.	.	.
16GG 16GGG\	16eJJ 16c< 16G</	.	.	.	.
16GG 16GGG\	16e 16c< 16G</	.	.	.	.
16r	16r	.	.	.	.
8r	8r	.	.	.	.
8G\	8g/	.	.	.	.
(8qA/	(8qa/	.	.	.	.
(8G\L)	(8g/L)	.	.	.	.
8F#X\)	8f#X/)	.	.	.	.
8G'\J	8g'/J	.	.	.	.
=95	=95	=95	=95	=95	=95
[4C/	[4c/	.	.	.	.
16C/]	16c/LL]	.	.	.	.
16E 16C 16EE'/	16gJJ 16c 16G'/	.	.	.	.
16E 16C 16EE'/	16g 16c 16G'/	.	.	.	.
16r	16r	.	.	.	.
8r	8r	.	.	.	.
8r	8r	.	.	.	.
8c\L	8e/L	Wszak	.	<	.
8c 8G\	8g 8e/	to	.	.	.
8cJ 8G 8E\	8ccJ 8g 8e/	przy-	.	[[	.
!!LO:LB:g=original
=96	=96	=96	=96	=96	=96
*ped	*	*	*	*	*
!	!LO:TX:t=P:problem:spiccato u dołu	!	!	!	!
4c 4C\	[4.ee [4.g [4.e^^</	-pad-	.	mf	.
8C 8CC/	.	.	.	.	.
8C 8CC/	4ee] 4g] 4e/]	.	.	>	.
8r	.	.	.	.	.
*Xped	*	*	*	*	*
8C 8CC/	8cc 8g 8e/	-kiem	.	.	.
8C 8CC/	4a 4f/	zdar-	.	]	.
8r	.	.	.	.	.
8C 8CC/	8cc 8a 8f/	-ta	.	.	.
=97	=97	=97	=97	=97	=97
(8qCC/	.	.	.	.	.
(4C/)	[4.g [4.e/	sza-	.	p	.
8E\	.	.	.	.	.
4G\)	4g] 4e/]	-ta,	.	.	.
8r	8r	.	.	.	.
(8qA'/	(8qa'/	.	.	.	.
8G'\L)	8g'/L)	.	.	.	.
8F#X'\	8f#X'/	.	.	.	.
8G'\J	8g'/J	.	.	.	.
=98	=98	=98	=98	=98	=98
[4C/	[4c/	.	.	.	.
!LO:N:vis=4	!	!	!	!	!
16C/]	16c/LL]	.	.	.	.
16CC 16CCC\	16cJJ 16G< 16E</	.	.	.	.
16CC 16CCC\	16c 16G< 16E</	.	.	.	.
16r	16r	.	.	.	.
8r	8r	.	.	.	.
8E\	8e/	.	.	.	.
(8qF/	(8qf/	.	.	.	.
(8E\L)	(8e/L)	.	.	.	.
8D#X\)	8d#X/)	.	.	.	.
8E'\J	8e'/J	.	.	.	.
=99	=99	=99	=99	=99	=99
(4GG/	[4G/	.	.	.	.
16GG/)	16G/LL]	.	.	.	.
16GG 16GGG\	16GJJ 16E< 16C</	.	.	.	.
16GG 16GGG\	16G 16E< 16C</	.	.	.	.
16r	16r	.	.	.	.
8r	8r	.	.	.	.
8r	8r	.	.	.	.
8c\L	8gL 8e 8c</	.	.	<	.
8c 8G\	8cc 8g 8e/	.	.	.	.
8cJ 8G 8E\	8eeJ 8cc 8g 8e/	.	.	[[	.
!!LO:LB:g=original
=100	=100	=100	=100	=100	=100
4C 4CC/	[4.gg [4.ee [4.cc [4.g\	.	.	f	.
8c 8G 8E 8C\	.	.	.	.	.
4c 4G 4E 4C\	4gg] 4ee] 4cc] 4g\]	.	.	>	.
8c 8G 8C\	8ee 8cc 8g 8e/	.	.	.	.
4c 4A 4C\	4cc 4a 4f/	.	.	.	.
8c 8F 8C\	8ff 8a 8f\	.	.	]]	.
=101	=101	=101	=101	=101	=101
4c 4G 4C\	4ee 4g 4e/	.	.	.	.
8r	8r	.	.	.	.
4r	4r	.	.	.	.
8C/	8c/	.	.	pp	.
(8qD/	(8qd/	.	.	.	.
8C'/L)	8c'/L)	.	.	.	.
8BB'/	8B'/	.	.	.	.
8C'/J	8c'/J	.	.	.	.
=102	=102	=102	=102	=102	=102
4C/	[4.c/	.	.	.	.
8CC/	.	.	.	.	.
8C/	4c/]	.	.	.	.
8r	.	.	.	.	.
8C/	8c/	.	.	.	.
(8qD/	(8qd/	.	.	.	.
(8C/L)	(8c/L)	.	.	.	.
8BB/)	8B/)	.	.	.	.
8C'/J	8c'/J	.	.	.	.
=103	=103	=103	=103	=103	=103
*	*^	*	*	*	*
2.E 2.EE/	[4.g [4.c/	2.ryy	.	.	.	.
.	4g] 4c/]	.	.	.	.	.
.	8b-X 8g 8c/	.	.	.	.	.
.	(<8qcc/	.	.	.	.	.
4.E 4.EE/	8b-/L)	4g 4c\	.	.	.	.
.	8a/J	.	.	.	.	.
.	8b-/	8g 8c\	.	.	.	.
*	*v	*v	*	*	*	*
!!LO:LB:g=original
=104	=104	=104	=104	=104	=104
(4C 4FF/	(<4a 4f'</	.	.	.	.
8F 8FF'/	8a 8c 8A'</	.	.	.	.
4F 4FF'/)	4a 4c 4A'</)	.	.	.	.
8E-X 8EE-X'/	8g 8c#X 8A'</	.	.	.	.
8E-L 8EE-'/	8gL 8c# 8A'</	.	.	.	.
8D 8DD'/	8f#X 8d 8A'</	.	.	.	.
8E-J 8EE-'/	8gJ 8c# 8A'</	.	.	.	.
=105	=105	=105	=105	=105	=105
[4.D [4.DD/	[4.f#X [4.d [4.A/	.	.	.	.
8D] 8DD/]	8f#] 8d] 8A/]	.	.	.	.
8r	8r	.	.	.	.
8D\	8d/	.	.	.	.
(8qE/	(8qe/	.	.	.	.
8D'\L)	8d'/L)	.	.	.	.
8C#X'\	8c#X'/	.	.	.	.
8D'\J	8d'/J	.	.	.	.
=106	=106	=106	=106	=106	=106
[4.D\	[4.d/	.	.	.	.
4D\]	4d/]	.	.	.	.
8D\	8d'/	.	.	.	.
(8qE/	(8qe/	.	.	.	.
(8D\L)	(8d/L)	.	.	.	.
8C#X\)	8c#X/)	.	.	.	.
8D'\J	8d'/J	.	.	.	.
=107	=107	=107	=107	=107	=107
*	*^	*	*	*	*
[4.GG#X [4.GGG#X/	[4.a [4.f [4.d/	4.ryy	.	.	.	.
8GG#] 8GGG#/]	8a] 8f] 8d/]	4.ryy	.	.	.	.
8r	8r	.	.	.	.	.
8B 8G#X\	8dd 8f/	.	.	.	.	.
.	(<8qee/	.	.	.	.	.
4B 4G#\	8dd/L)	4f\	.	.	.	.
.	8cc/	.	.	.	.	.
8B 8G#\	8dd/J	8f\	.	.	.	.
*	*v	*v	*	*	*	*
!!LO:LB:g=original
=108	=108	=108	=108	=108	=108
4c 4A\	4cc 4e'/	.	.	.	.
8A\	8a 8e 8c/	.	.	.	.
4A\	4a 4e 4c/	.	.	.	.
8F 8FF/	8a 8d#X 8B/	.	.	.	.
8FL 8FF'/	8aL 8d# 8B'/	.	.	.	.
8E 8EE'/	8g#X 8e 8B'/	.	.	.	.
8FJ 8FF'/	8aJ 8d# 8B'/	.	.	.	.
=109	=109	=109	=109	=109	=109
*M3/4	*M3/4	*	*	*	*
4E 4EE/	4g#X 4e 4B/	.	.	.	.
8r	8r	.	.	.	.
8BL 8BB/	8g#L 8e 8B'/	.	.	<	.
8G#X 8GG#X/	8b 8g# 8e'/	.	.	.	.
8EJ 8EE/	8eeJ 8g# 8e'/	.	.	[[	.
=110	=110	=110	=110	=110	=110
*ped	*	*	*	*	*
8BBL 8BBB\	4.gg#X 4.ee 4.b 4.g#X\	.	.	sff	.
16r	.	.	.	.	.
16eJk 16B 16G#X\	.	.	.	.	.
*Xped	*	*	*	*	*
8e 8B 8G#\	.	.	.	.	.
8BL 8BB'\	8eeL 8g# 8e'\	.	.	.	.
8B 8BB'\	8dd# 8a 8f#X'\	.	.	.	.
8BJ 8BB'\	8ff#XJ 8dd# 8a'\	.	.	.	.
=111	=111	=111	=111	=111	=111
*	*^	*	*	*	*
[4B [4E\	[4ee/	[4g#X [4e\	.	.	.	.
8B] 8E\]	8ee/]	8g#] 8e\]	.	.	.	.
*ped	*	*	*	*	*	*
8r	8E</L	4.ryy	.	.	p <	.
4r	8Gn</	.	.	.	.	.
.	8cn</J	.	.	.	[[	.
*	*v	*v	*	*	*	*
=112	=112	=112	=112	=112	=112
8.r	4.e 4.c 4.G/	.	.	.	.
16GG 16GGG/	.	.	.	.	.
*tremolo	*	*	*	*	*
8GGL 8GGG/	.	.	.	.	.
8GG 8GGG/	8gL 8e 8G<'>/	.	.	>	.
8GG 8GGG/	8f 8d 8G<'>/	.	.	.	.
8GGJ 8GGG/	8dJ 8B< 8F<'>/	.	.	]]	.
*Xtremolo	*	*	*	*	*
!!LO:PB:g=original
=113	=113	=113	=113	=113	=113
*M9/8	*M9/8	*	*	*	*
[<4.GG\ [4.CC\	[4.c [4.E</	.	.	.	.
8GG\] 8CC\]	8c] 8E</]	.	.	.	.
8r	8r	.	.	.	.
8c\	8cc\	.	.	.	.
(8qd/	(8qdd/	.	.	.	.
(8c\L)	(8cc\L)	.	.	.	.
8B\)	8b\)	.	.	.	.
8c'\J	8cc'\J	.	.	.	.
=114	=114	=114	=114	=114	=114
(4C\	4c/	.	.	.	.
16C\LL)	16c/LL	.	.	.	.
16CJJ 16FF\	16cJJ 16A-X< 16F</	.	.	.	.
8C 8CC\	8c 8G< 8E</	.	.	.	.
8r	8r	.	.	.	.
8c\	8cc\	.	.	.	.
(8qd/	(8qdd/	.	.	.	.
(8c\L)	(8cc\L)	.	.	.	.
8B\)	8b\)	.	.	.	.
8c'\J	8cc'\J	.	.	.	.
=115	=115	=115	=115	=115	=115
[4C\	[4c/	.	.	.	.
16C\LL]	16c/LL]	.	.	.	.
16CJJ 16FF\	16cJJ 16A-X< 16F</	.	.	.	.
4C 4CC\	4c 4G< 4E</	.	.	.	.
8C'\	8c'/	.	.	.	.
!	!LO:TX:t=P:problem:błędne wyświetlanie łuku	!	!	!	!
.	(8qd/	.	.	pp	.
8GGL 8CC\	8cL) 8G< 8E<'>/	.	.	.	.
8GG 8CC\	8B 8G< 8E<'>/	.	.	.	.
8GGJ 8CC\	8cJ 8G< 8E<'>/	.	.	.	.
=116	=116	=116	=116	=116	=116
!	!LO:TX:t=P:problem:błędne wyświetlanie łuku	!	!	!	!
.	(8qf/	.	.	.	.
8CL 8GG 8CC\	8eL 8c 8G</)	.	.	.	.
8C 8GG 8CC\	8d# 8c 8G</	.	.	.	.
8CJ 8GG 8CC\	8eJ 8c 8G</	.	.	.	.
!	!LO:TX:t=P:problem:błędne wyświetlanie łuku	!	!	!	!
.	(8qa/	.	.	.	.
!	!	!	!	!LO:HP:b:t=cre-scen-do:ext2=ud	!
8CL 8GG 8CC\	8gL 8e 8c'>/)	.	.	<	.
8C 8GG 8CC\	8f#X 8e 8c'>/	.	.	.	.
8CJ 8GG 8CC\	8gJ 8e 8c'>/	.	.	.	.
!	!LO:TX:t=P:problem:błędne wyświetlanie łuku	!	!	!	!
.	(8qdd/	.	.	.	.
8CL 8GG 8CC\	8ccL 8g 8e'>/)	.	.	.	.
8C 8GG 8CC\	8b 8g 8e'>/	.	.	.	.
8CJ 8GG 8CC\	8ccJ 8g 8e'>/	.	.	.	.
!!LO:LB:g=original
=117	=117	=117	=117	=117	=117
!	!LO:TX:t=P:problem:błędne wyświetlanie łuku	!	!	!	!
.	(8qff/	.	.	.	.
8CL 8GG 8CC/	8eeL 8cc 8g/)	.	.	.	.
8C 8GG 8CC/	8dd# 8cc 8g/	.	.	.	.
8CJ 8GG 8CC/	8eeJ 8cc 8g/	.	.	.	.
.	(8qaa/	.	.	.	.
8CL 8GG 8CC/	8ggL 8ee 8cc'>\)	.	.	.	.
8C 8GG 8CC/	8ff#X 8ee 8cc'>\	.	.	.	.
8CJ 8GG 8CC/	8ggJ 8ee 8cc'>\	.	.	.	.
.	(8qddd/	.	.	.	.
8CL 8GG 8CC/	8cccL 8gg 8ee'>\)	.	.	.	.
8C 8GG 8CC/	8bb 8gg 8ee'>\	.	.	[	.
8CJ 8GG 8CC/	8cccJ 8gg 8ee'>\	.	.	.	.
=118	=118	=118	=118	=118	=118
8C 8GG 8CC/	8eee\ 8gg\ 8ee\	.	.	ff	.
8.r	8.r	.	.	.	.
16G#X/ 16GG#X/	16gg#X 16g#X\	.	.	.	.
8A 8AA\	8aa 8a\	.	.	.	.
8.r	8.r	.	.	.	.
16F#X/ 16FF#X/	16ff#X 16f#X\	.	.	.	.
8Gn/ 8GGn/	8ggn 8gn\	.	.	.	.
8.r	8.r	.	.	.	.
16E/ 16EE/	16ee 16e/	.	.	.	.
=119	=119	=119	=119	=119	=119
8C/ 8CC/	8cc 8c/	.	.	.	.
8.r	8.r	.	.	.	.
16G#X/ 16GG#X/	16gg#X 16g#X\	.	.	.	.
8A 8AA\	8aa 8a\	.	.	.	.
8.r	8.r	.	.	.	.
16F#X/ 16FF#X/	16ff#X 16f#X\	.	.	.	.
8Gn/ 8GGn/	8ggn 8gn\	.	.	.	.
8.r	8.r	.	.	.	.
16E/ 16EE/	16ee 16e/	.	.	.	.
!!LO:LB:g=original
=120||	=120||	=120||	=120||	=120||	=120||
*M4/4	*M4/4	*	*	*	*
*met(c)	*met(c)	*	*	*	*
!!LO:TX:B:a:t=Allegro.
8CC/L	4cc 4c/	.	.	f pp	.
8C/	.	.	.	.	.
8CC/	4r	.	.	.	.
8C/J	.	.	.	.	.
8CC/L	4c/	.	Pod:Czy	.	.
8C/	.	.	.	.	.
8CC/	4c/	.	przy-	.	.
8C/J	.	.	.	.	.
*	*clefF4	*	*	*	*
=121	=121	=121	=121	=121	=121
8CC/L	4G\	.	-pad-	.	.
8C/	.	.	.	.	.
8CC/	4G\	.	-kiem	.	.
8C/J	.	.	.	.	.
8CC/L	4A\	.	ta	.	.
8C/	.	.	.	.	.
8CC/	4A\	.	piesz-	.	.
8C/J	.	.	.	.	.
=122	=122	=122	=122	=122	=122
8CC/L	4E\	.	-czo-	.	.
8C/	.	.	.	.	.
8CC/	4E\	.	-cha	.	.
8C/J	.	.	.	.	.
8CC/L	4c\	.	w Ka-	.	.
8C/	.	.	.	.	.
8CC/	4c\	.	-zi-	.	.
8C/J	.	.	.	.	.
=123	=123	=123	=123	=123	=123
8CC/L	4G\	.	-mie-	.	.
8C/	.	.	.	.	.
8CC/	4G\	.	-rzu	.	.
8C/J	.	.	.	.	.
8CC\L	4E\	Chór.	się	.	.
8C\	.	.	.	.	.
*	*clefG2	*	*	*	*
8CC\	(>8eL 8c 8G</	La	nie	pp	.
!	!LO:TX:t=P:problem:sylaba błędnie przeniesiona do dołu	!	!	!	!
8C\J	8F#X</J	za	.	.	.
=124	=124	=124	=124	=124	=124
8CC\L	4e 4c 4G</)	ro	ko	.	.
8C\	.	.	.	.	.
8CC\	4e 4c 4G</	wicz	cha?	.	.
8C\J	.	.	.	.	.
8CC\L	4r	.	.	.	.
8C\	.	.	.	.	.
8CC\	8eL 8c 8G#X</	trzy	.	.	.
!	!LO:TX:t=P:problem:sylaba błędnie przeniesiona do dołu	!	!	!	!
8C\J	8F##X</J	ty-	.	.	.
!!LO:LB:g=original
=125	=125	=125	=125	=125	=125
8CC\L	4e 4c 4G#X</	-god-	.	.	.
8C\	.	.	.	.	.
8CC\	4e 4c 4G#</	-nie	.	.	.
8C\J	.	.	.	.	.
8CC\L	4r	.	.	.	.
8C\	.	.	.	.	.
8CC\	8fL 8c 8A</	szy-	.	.	.
!	!LO:TX:t=P:problem:sylaba błędnie przeniesiona do dołu	!	!	!	!
8C\J	8G#</J	-ła	.	.	.
=126	=126	=126	=126	=126	=126
*^	*	*	*	*	*
8CC\L	2ryy	4f 4c 4A</	cud-	.	.	.
8C\	.	.	.	.	.	.
8CC\	.	4e 4c 4Gn</	-ną	.	.	.
8C\J	.	.	.	.	.	.
8F#X\L	4A/	4d 4c/	suk-	.	.	.
8C\	.	.	.	.	.	.
8Fn\	4ryy	4a 4d 4B/	-nię	.	.	.
8C\J	.	.	.	.	.	.
*v	*v	*	*	*	*	*
=127	=127	=127	=127	=127	=127
*	*^	*	*	*	*
4E\	4r	2.ryy	.	.	.	.
8CC/L	4g 4e 4c/	.	tę,	.	.	.
8C/J	.	.	.	.	.	.
8CC/L	4r	.	.	.	.	.
8C/	.	.	.	.	.	.
8BBB/	(8a/L	4e\	I	.	.	.
8BB/J	8b/J	.	roz-	.	.	.
=128	=128	=128	=128	=128	=128	=128
8AAA/L	4cc 4e/)	2.ryy	-dar-	.	.	.
8AA/	.	.	.	.	.	.
8AA/	4cc 4a 4e/	.	-ta	.	.	.
8A/J	.	.	.	.	.	.
8AA\L	4r	.	.	.	.	.
8A\	.	.	.	.	.	.
8AA\	(8b/L	4e\	tak	.	.	.
8A\J	8cc/J	.	nie-	.	.	.
=129	=129	=129	=129	=129	=129	=129
8D\L	4dd/)	4f#X\	-god-	.	.	.
8A\	.	.	.	.	.	.
8D\	2a 2f# 2d/	2ryy	-nie,	.	.	.
8A\J	.	.	.	.	.	.
8D\L	.	.	.	.	.	.
8A\	.	.	.	.	.	.
8D\	(8a/L	4f\	że	.	.	.
8A\J	8cc/J	.	się	.	.	.
!!LO:LB:g=original
=130	=130	=130	=130	=130	=130	=130
8D\L	4b/)	4g\	aż	.	.	.
8d\	.	.	.	.	.	.
8D\	(8f#X/L	2.ryy	za-	.	.	.
8d\J	8g/J	.	.	.	.	.
4c#X 4C#X\	4a/)	.	-pła-	.	.	.
4cn 4Cn\	(8e/L	.	-kać	.	.	.
.	8f#/J	.	.	.	.	.
*	*v	*v	*	*	*	*
=131	=131	=131	=131	=131	=131
4B 4BB'\	4g/)	chce.	.	.	.
4B-X 4BB-X'\	8d/L	.	.	.	.
.	8e/J	.	.	.	.
4A 4AA'\	4f/	.	.	.	.
4A-X 4AA-X\	8c/L	.	.	.	.
.	8d/J	.	.	.	.
=132	=132	=132	=132	=132	=132
4F 4GG'\	4e/	.	.	.	.
8GGG\L	4e 4c 4G</	.	.	.	.
8GG\J	.	.	.	.	.
8GGG\L	4r	.	.	.	.
8GG\	.	.	.	.	.
8GGGn\	(>8eL 8c 8G#X</	.	.	.	.
8GG\J	8F##X</J	.	.	.	.
=133	=133	=133	=133	=133	=133
8GGGn\L	4e 4c 4G#X</)	.	.	.	.
8GG\	.	.	.	.	.
8GGG\	4e 4c 4G#</	.	.	.	.
8GG\J	.	.	.	.	.
8GGG\L	4r	.	.	.	.
8GG\	.	.	.	.	.
8GGG\	(>8fL 8c 8A</	.	.	.	.
8GG\J	8G#</J	.	.	.	.
=134	=134	=134	=134	=134	=134
*^	*	*	*	*	*
8GGG/L	2ryy	4f 4c 4A/)	.	.	.	.
8GG/J	.	.	.	.	.	.
8r	.	4e 4c 4Gn/	.	.	.	.
8GG/	.	.	.	.	.	.
8F#X\L	4F#/	4d 4A/	.	.	.	.
8GG\	.	.	.	.	.	.
8Fn\	4F/	4a 4B/	.	.	.	.
8GG\J	.	.	.	.	.	.
*v	*v	*	*	*	*	*
!!LO:PB:g=original
=135	=135	=135	=135	=135	=135
*	*^	*	*	*	*
4E'\	4r	2.ryy	.	.	.	.
8CC/L	4g 4e 4c/	.	.	.	.	.
8C/J	.	.	.	.	.	.
8CC/L	4r	.	.	.	.	.
8C/	.	.	.	.	.	.
8CC/	(8a/L	4e\	.	.	.	.
8BBB/J	8b/J	.	.	.	.	.
=136	=136	=136	=136	=136	=136	=136
8AAA/L	4cc 4e'</)	2.ryy	.	.	.	.
8AA/J	.	.	.	.	.	.
8AA\L	4cc 4a 4e/	.	.	.	.	.
8A\J	.	.	.	.	.	.
8AA\L	4r	.	.	.	.	.
8A\	.	.	.	.	.	.
8AA\	(8b/L	4e\	.	.	.	.
8A\J	8cc/J	.	.	.	.	.
=137	=137	=137	=137	=137	=137	=137
8D\L	4ee\ 4f#X\)	2.ryy	.	.	.	.
8A\	.	.	.	.	.	.
8D\	4dd 4a 4f#/	.	.	.	.	.
8A\J	.	.	.	.	.	.
8D\L	4r	.	.	.	.	.
8A\	.	.	.	.	.	.
8D\	(8a/L	4f# 4d\	.	.	.	.
8A\J	8cc/J	.	.	.	.	.
*	*v	*v	*	*	*	*
=138	=138	=138	=138	=138	=138
8GG/L	4b 4fn 4d'/)	.	.	.	.
8G/	.	.	.	.	.
8GG/	4a 4f 4d'/	.	.	.	.
8G/J	.	.	.	.	.
8GG/L	4b 4f 4d'/	.	.	.	.
8G/	.	.	.	.	.
8GG/	4g 4f 4B'/	.	.	.	.
[>8G/J	.	.	.	.	.
=139	=139	=139	=139	=139	=139
*	*^	*	*	*	*
4G] 4C'\	4cc 4e/	2.ryy	.	.	.	.
(8C^/L	2cc 2e 2c/	.	.	.	.	.
8BB/J	.	.	.	.	.	.
8C/L)	.	.	.	.	.	.
8CC/	.	.	.	.	.	.
8C/	(8cc/L	4g 4e\	.	.	.	.
8CC/J	8b/J	.	.	.	.	.
*	*v	*v	*	*	*	*
=140	=140	=140	=140	=140	=140
8C/L	4a 4f#X 4d#/)	.	.	.	.
8CC/J	.	.	.	.	.
(8C^/L	4a 4f# 4d#/	.	.	.	.
8BB/J	.	.	.	.	.
8C/L)	4r	.	.	.	.
8CC/	.	.	.	.	.
8C/	(>8ccL 8g 8e/	.	.	.	.
8CC/J	8b/J	.	.	.	.
!!LO:LB:g=original
=141	=141	=141	=141	=141	=141
*	*^	*	*	*	*
8C/L	4a 4f#X 4d#X/)	2.ryy	.	.	.	.
8CC/J	.	.	.	.	.	.
(8C/L	4a 4f# 4d#/	.	.	.	.	.
8BB/J	.	.	.	.	.	.
8C/L)	4r	.	.	.	.	.
8CC/	.	.	.	.	.	.
8C/	8cc/L	4g 4e\	.	.	.	.
8CC/J	8b/J	.	.	.	.	.
*	*v	*v	*	*	*	*
=142	=142	=142	=142	=142	=142
4C/	4a 4f#X 4e-X/	.	.	.	.
8C/L	4a 4f# 4e-/	.	.	.	.
8D/J	.	.	.	.	.
8BB/L	4b 4g 4d/	.	.	.	.
8D/J	.	.	.	.	.
8AA/L	4cc 4f#X 4d/	.	.	.	.
8D/J	.	.	.	.	.
=143	=143	=143	=143	=143	=143
*	*^	*	*	*	*
4GG/	4dd 4b 4g 4d'/	2.ryy	.	.	.	.
(8GG^/L	4g 4d 4B/	.	.	.	.	.
8FF#X/J	.	.	.	.	.	.
8GG/L)	4r	.	.	.	.	.
8GGG/	.	.	.	.	.	.
8GG/	(8dd/L	4d\	.	.	.	.
8AA/J	8cc/J	.	.	.	.	.
=144	=144	=144	=144	=144	=144	=144
4BB-X/	4b-X 4f 4d/)	2.ryy	.	.	.	.
(8BB-^/L	4b- 4f 4d/	.	.	.	.	.
8AA/J	.	.	.	.	.	.
8BB-/L)	4r	.	.	.	.	.
8BBB-y/	.	.	.	.	.	.
8BB-/	8dd/L	4f 4d\	.	.	.	.
8BBB-y/J	8cc/J	.	.	.	.	.
=145	=145	=145	=145	=145	=145	=145
4BB-X/	4b-X 4d/	2.ryy	.	.	.	.
(8BB-^/L	4b- 4f 4d/	.	.	.	.	.
8AA/J	.	.	.	.	.	.
8BB-/L)	4r	.	.	.	.	.
8BBB-y/	.	.	.	.	.	.
8BB-/	(8dd/L	4f 4d\	.	.	.	.
8BBB-y/J	8cc/J	.	.	.	.	.
*	*v	*v	*	*	*	*
!!LO:LB:g=original
=146	=146	=146	=146	=146	=146
4BB-X/	4b-X 4f 4d/)	.	.	.	.
(8AA-X\L	4dd 4b- 4f/	.	.	.	.
8A-X\J	.	.	.	.	.
8GG/L	4ee-X 4b- 4e-X/	.	.	.	.
8G/J	.	.	.	.	.
8FF/L	4ff 4dd 4a- 4f/	.	.	.	.
8F/J)	.	.	.	.	.
=147	=147	=147	=147	=147	=147
4.E-X 4.BB-X 4.EE-X/	(4.gg 4.ee-X 4.b-X 4.g^^\	.	.	f	.
8B-X 8G\	8ff\	.	.	.	.
4e-X 4B- 4G'\	8ee-X\L	.	.	.	.
.	8b-\	.	.	.	.
4e- 4B- 4G'\	8g\	.	.	.	.
.	8cc\J)	.	.	.	.
=148	=148	=148	=148	=148	=148
4f 4d 4B-X\	4b-X'\	.	.	.	.
4A-X 4BB-X 4AA-X/	4dd 4b- 4f/	.	.	.	.
4G 4BB- 4GG/	4ee-X 4b- 4e-X/	.	.	.	.
4F 4BB- 4FF/	4ff 4dd 4a- 4f\	.	.	.	.
=149	=149	=149	=149	=149	=149
4.E-X 4.BB-X 4.EE-X/	(4.gg 4.ee-X 4.b-X 4.g^^\	.	.	sf	.
8B-X 8G\	8ff\	.	.	.	.
4e-X 4B- 4G'\	8ee-X\L	.	.	.	.
.	8b-\	.	.	.	.
4e- 4B- 4G'\	8g\	.	.	.	.
.	8cc\J)	.	.	.	.
=150	=150	=150	=150	=150	=150
4f 4d 4B-X\	4b-X\	.	.	.	.
4A-X 4BB-X 4AA-X/	4dd 4b- 4f/	.	.	.	.
4G 4BB- 4GG/	4ee-X 4b- 4e-X/	.	.	.	.
4F 4BB- 4FF/	4ff 4dd 4a-X 4f\	.	.	.	.
=151	=151	=151	=151	=151	=151
4E-X 4BB-X 4EE-X/	4ee-X 4b-X 4g\	.	.	.	.
4r	(8ff\L	.	.	.	.
.	8gg\J	.	.	.	.
2A-X 2F 2BBn\	4aa-X^\	.	.	.	.
.	8gg\L	.	.	.	.
.	8ff\J	.	.	.	.
!!LO:LB:g=original
=152	=152	=152	=152	=152	=152
2A-X 2F 2C\	4ee-X\)	.	.	.	.
.	(8dd\L	.	.	.	.
.	8ee-\J	.	.	.	.
2A- 2F 2D\	4ff^\	.	.	.	.
.	8ee-\L	.	.	.	.
.	8dd\J	.	.	.	.
=153	=153	=153	=153	=153	=153
2A-X 2F 2E-X\	4cc\)	.	.	.	.
.	(8b\L	.	.	.	.
.	8cc\J	.	.	.	.
2A- 2F 2D\	4dd^\)	.	.	.	.
.	(8b\L	.	.	.	.
.	8cc\J	.	.	.	.
=154	=154	=154	=154	=154	=154
2A-X 2F 2C\	8dd\L	.	.	.	.
.	8cc\	.	.	.	.
.	8b\	.	.	.	.
.	8cc\J	.	.	.	.
2A- 2F 2C-\	8dd\L	.	.	.	.
.	8cc\	.	.	.	.
.	8dd\	.	.	.	.
.	8ee-X\J	.	.	.	.
=155	=155	=155	=155	=155	=155
2A-X 2D 2BB-X\	4ff\)	.	.	.	.
.	(8ff\L	.	.	.	.
.	8gg\J	.	.	.	.
2A- 2F 2BBn\	4aa-X^\	.	.	.	.
.	8gg\L	.	.	.	.
.	8ff\J	.	.	.	.
=156	=156	=156	=156	=156	=156
2A-X 2F 2C\	4ee-X\)	.	.	.	.
.	(8dd\L	.	.	.	.
.	8ee-\J	.	.	.	.
2A- 2F 2D\	4ff\	.	.	.	.
.	8ee-\L	.	.	.	.
.	8dd\J	.	.	.	.
=157	=157	=157	=157	=157	=157
2A-X 2F 2E-X\	4cc\)	.	.	.	.
.	(8b\L	.	.	.	.
.	8cc\J	.	.	.	.
2A- 2F 2D\	4dd\)	.	.	.	.
.	(8b\L	.	.	.	.
.	8cc\J	.	.	.	.
!!LO:LB:g=original
=158	=158	=158	=158	=158	=158
2A-X 2F 2C\	8dd\L	.	.	.	.
.	8cc\	.	.	.	.
.	8b\	.	.	.	.
.	8cc\J	.	.	.	.
2A- 2F 2C-\	8dd\L	.	.	.	.
.	8cc\	.	.	.	.
.	8dd\	.	.	.	.
.	8ee-X\J	.	.	.	.
=159	=159	=159	=159	=159	=159
*	*^	*	*	*	*
4A 4F 4BB-X\	4ff\)	4ryy	.	.	sf	.
8B-XL 8A-X\	4ff/	8ddL 8b-X\	.	.	.	.
8d\J	.	8f\J	.	.	.	.
8B-L 8A-\	[2ff/	8ddL 8b-\	.	.	.	.
8d\	.	8f\	.	.	.	.
8B- 8A-\	.	8dd 8b-\	.	.	.	.
8d\J	.	8f\J	.	.	.	.
=160	=160	=160	=160	=160	=160	=160
*tremolo	*	*tremolo	*	*	*	*
8B-XL 8A-X\	4ff/]	8ddL 8b-X\	.	.	.	.
8d\	.	8f\	.	.	.	.
8B- 8A-\	4ff/	8dd 8b-\	.	.	.	.
8d\J	.	8f\J	.	.	.	.
8B-L 8A-\	4ff/	8ddL 8b-\	.	.	.	.
8d\	.	8f\	.	.	.	.
8B- 8A-\	4ff/	8dd 8b-\	.	.	.	.
8d\J	.	8f\J	.	.	.	.
=161	=161	=161	=161	=161	=161	=161
8B-XL 8A-X\	4ff/	8ddL 8b-X\	.	.	.	.
8d\	.	8f\	.	.	.	.
8B- 8A-\	4ff/	8dd 8b-\	.	.	.	.
8d\J	.	8f\J	.	.	.	.
8B-L 8A-\	[2ff/	8ddL 8b-\	.	.	.	.
8d\	.	8f\	.	.	.	.
8B- 8A-\	.	8dd 8b-\	.	.	.	.
8d\J	.	8f\J	.	.	.	.
=162	=162	=162	=162	=162	=162	=162
8B-XL 8A-X\	4ff/]	8ddL 8b-X\	.	.	.	.
8d\	.	8f\	.	.	.	.
8B- 8A-\	4ff/	8dd 8b-\	.	.	.	.
8d\J	.	8f\J	.	.	.	.
8B-L 8A-\	4ff/	8ddL 8b-\	.	.	.	.
8d\	.	8f\	.	.	.	.
8B- 8A-\	4ff/	8dd 8b-\	.	.	.	.
8d\J	.	8f\J	.	.	.	.
*Xtremolo	*	*Xtremolo	*	*	*	*
!!LO:PB:g=original
=163	=163	=163	=163	=163	=163	=163
(2e-X (2E-X^^\	2ff#X/	8cc\L	.	.	.	.
.	.	8a\	.	.	.	.
.	.	8cc\	.	.	.	.
.	.	8a\J	.	.	.	.
4d 4D'\))	4ff#/	4dd\	.	.	.	.
4c 4C'\	4ff#/	4ee-X 4a\	.	.	.	.
=164	=164	=164	=164	=164	=164	=164
(2e-X (2E-X^^\	2ff#X/	8cc\L	.	.	.	.
.	.	8a\	.	.	.	.
.	.	8cc\	.	.	.	.
.	.	8a\J	.	.	.	.
4d 4D'\))	4ff#/	4dd\	.	.	.	.
4c 4C'\	4ff#/	4ee-X 4a\	.	.	.	.
=165	=165	=165	=165	=165	=165	=165
(2e-X (2E-X^^\	2ff#X/	8cc\L	.	.	.	.
.	.	8a\	.	.	.	.
.	.	8cc\	.	.	.	.
.	.	8a\J	.	.	.	.
4d 4D'\))	4ff#/	4dd\	.	.	.	.
4c 4C'\	4ff#/	4ee-X 4a\	.	.	.	.
*	*v	*v	*	*	*	*
=166	=166	=166	=166	=166	=166
4B 4BB'\	4gg 4dd 4g'\	.	.	.	.
4B-X 4BB-X'\	4gg#X 4ff 4dd'\	.	.	.	.
4A 4AA'\	4aa 4ff 4dd'\	.	.	.	.
4A-X 4AA-X'\	4bb-X 4ff 4dd'\	.	.	.	.
=167	=167	=167	=167	=167	=167
4G 4GG/	4bb 4ff 4dd'\	.	.	.	.
2A-X 2BBn 2AA-X^^\	2ddd 2ff 2dd^^\	.	.	.	.
4A- 4C 4AA-\	4ccc 4ff 4cc\	.	.	.	.
!!LO:LB:g=original
=168	=168	=168	=168	=168	=168
4G 4D 4GG/	4bb 4ff 4b\	.	.	.	.
2A-X 2BB 2AA-X^^\	2ddd 2ff 2dd^^\	.	.	.	.
4A- 4C 4AA-\	4ccc 4ff 4cc'\	.	.	.	.
=169	=169	=169	=169	=169	=169
4G 4D 4GG/	4bb 4ff 4b\	.	.	.	.
2A-X 2BB 2AA-X^^\	2ddd 2ff 2dd^^\	.	.	.	.
4A- 4C 4AA-\	4ccc 4ff 4cc\	.	.	.	.
=170	=170	=170	=170	=170	=170
4G 4GG/	4bb 4ff 4dd'\	.	.	.	.
4G 4GG/	4ccc 4gg 4ee'\	.	.	.	.
4G 4GG/	4ddd 4bb 4gg'\	.	.	.	.
4G 4GG/	4eee 4ccc 4gg'\	.	.	.	.
=171	=171	=171	=171	=171	=171
4G 4GG/	8fffL 8bb 8gg\	.	.	fp	.
.	8eee\	.	.	.	.
*clefG2	*	*	*	*	*
8dd\L	8ddd\	.	.	.	.
8cc\J	8ccc\J	.	.	.	.
8b/L	8bb\L	.	.	.	.
8a/	8aa\	.	.	.	.
8b/	8bb\	.	.	.	.
8cc/J	8ccc\J	.	.	.	.
=172	=172	=172	=172	=172	=172
8ee\L	8eee\L	.	.	.	.
8dd\	8ddd\	.	.	.	.
8cc\	8ccc\	.	.	.	.
8b\J	8bb\J	.	.	.	.
8a/L	8aa\L	.	.	.	.
8g/	8gg\	.	.	.	.
8a/	8aa\	.	.	.	.
8b/J	8bb\J	.	.	.	.
!!LO:LB:g=original
=173	=173	=173	=173	=173	=173
8cc/L	8ccc\L	.	.	.	.
8b/	8bb\	.	.	.	.
8a/	8aa\	.	.	.	.
8g/J	8gg\J	.	.	.	.
8f/L	8ff\L	.	.	.	.
8e/	8ee\	.	.	.	.
8f/	8ff\	.	.	.	.
8g/J	8gg\J	.	.	.	.
=174	=174	=174	=174	=174	=174
8a/L	8aa\L	.	.	.	.
8g/	8gg\	.	.	.	.
8f/	8ff\	.	.	.	.
8e/J	8ee\J	.	.	.	.
8d/L	8dd\L	.	.	.	.
8c/	8cc\	.	.	.	.
8d/	8dd\	.	.	.	.
8e/J	8ee\J	.	.	.	.
=175	=175	=175	=175	=175	=175
8g/L	8gg\L	.	.	.	.
8f/	8ff\	.	.	.	.
8e/	8ee\	.	.	.	.
8d/J	8dd\J	.	.	.	.
8c/L	8cc\L	.	.	.	.
8B/	8b\	.	.	.	.
8c/	8cc\	.	.	.	.
8d/J	8dd\J	.	.	.	.
=176	=176	=176	=176	=176	=176
8e/L	8ee\L	.	.	.	.
8d/	8dd\	.	.	.	.
8c/	8cc\	.	.	.	.
8B/J	8b\J	.	.	.	.
*clefF4	*	*	*	*	*
8A\L	8a/L	.	.	.	.
8G\	8g/	.	.	.	.
8A\	8a/	.	.	.	.
8B\J	8b/J	.	.	.	.
=177	=177	=177	=177	=177	=177
8d\L	8dd\L	.	.	.	.
8c\	8cc\	.	.	.	.
8B\	8b\	.	.	.	.
8A\J	8a\J	.	.	.	.
8G\L	8g/L	.	.	.	.
8F#X\	8f#X/	.	.	.	.
8G\	8g/	.	.	.	.
8G#X\J	8g#X/J	.	.	.	.
!!LO:LB:g=original
=178	=178	=178	=178	=178	=178
8A\L	8a/L	.	.	.	.
8Gn\	8gn/	.	.	.	.
8A\	8a/	.	.	.	.
8B\J	8b/J	.	.	.	.
8c\L	8cc\L	.	.	.	.
8B\	8b\	.	.	.	.
8c\	8cc\	.	.	.	.
8d\J	8dd\J	.	.	.	.
=179	=179	=179	=179	=179	=179
*	*^	*	*	*	*
2c\	([1ee-X	2g\	.	.	.	.
2A\	.	2g-X\	.	.	.	.
=180	=180	=180	=180	=180	=180	=180
2B-X\	4ee-/]	2f\	.	.	.	.
.	4dd/	.	.	.	.	.
2BB-X/	4cc/	2a-X 2d\	.	.	.	.
.	4b-X/	.	.	.	.	.
=181	=181	=181	=181	=181	=181	=181
*^	*	*	*	*	*	*
2e-X/	1E-X	1gg	2g\	.	.	.	.
2c/	.	.	2an\	.	.	.	.
=182	=182	=182	=182	=182	=182	=182	=182
1d	2D\	2ff#X/	2a\	.	.	.	.
.	2G\	2ffn/	2b\	.	.	.	.
=183	=183	=183	=183	=183	=183	=183	=183
[1c	2A\	2.ee/)	2cc\	.	.	.	.
.	2G#X\	.	2b\	.	.	.	.
.	.	(4ee/	.	.	.	.	.
=184	=184	=184	=184	=184	=184	=184	=184
2c/]	1Gn	4ff/	1b-X	.	.	.	.
.	.	4ee/	.	.	.	.	.
2c#X/	.	4dd#/	.	.	.	.	.
.	.	4ee/	.	.	.	.	.
!!LO:LB:g=original
=185	=185	=185	=185	=185	=185	=185	=185
2d/	2F#X\	1aa	2a\	.	.	.	.
2d#/	2Fn\	.	[2b\	.	.	.	.
=186	=186	=186	=186	=186	=186	=186	=186
1e	2E\	2gg#X/	2b\]	.	.	.	.
.	[>2A\	2ggn/)	2cc#X\	.	.	.	.
*v	*v	*	*	*	*	*	*
=187	=187	=187	=187	=187	=187	=187
2d 2A] 2D\	4gg/	2dd\	.	.	.	.
.	2ff#X/	.	.	.	.	.
2d 2G\	.	2b\	.	.	.	.
.	[4ffn/	.	.	.	.	.
=188	=188	=188	=188	=188	=188	=188
2c 2A\	4ff/]	2cc\	.	.	.	.
.	2ee/	.	.	.	.	.
2d 2B\	.	2a-\	.	.	.	.
.	[4ff/	.	.	.	.	.
=189	=189	=189	=189	=189	=189	=189
2c\	4ff/]	2g\	.	.	.	.
.	4ee/	.	.	.	.	.
2e 2c#X\	4dd#X/	2b-X 2g\	.	.	.	.
.	4ee/	.	.	.	.	.
=190	=190	=190	=190	=190	=190	=190
4f 4d\	4gg/	2a\	.	.	.	.
4A 4D\	4ff/	.	.	.	.	.
4A 4E\	4cc#X/	4g\	.	.	.	.
4A 4F\	4dd/	4f\	.	.	.	.
=191	=191	=191	=191	=191	=191	=191
4G 4E 4C 4GG/	4aa/	4ee 4cc 4a\	.	.	ff	.
4G 4E 4C 4GG/	(2gg^^/	4ee 4cc 4g\	.	.	.	.
2r	.	2r	.	.	.	.
.	8ff/L	.	.	.	.	.
.	8ee/J	.	.	.	.	.
*	*v	*v	*	*	*	*
=192	=192	=192	=192	=192	=192
2f 2B 2G\	8dd/L	.	.	p	.
.	8cc/	.	.	.	.
.	8b/	.	.	.	.
.	8a/J	.	.	.	.
2r	8g/L	.	.	.	.
.	8f/	.	.	.	.
.	8e/	.	.	.	.
.	8d/J)	.	.	.	.
!!LO:PB:g=original
=193	=193	=193	=193	=193	=193
4C/	4c/	.	.	.	.
8CC\L	4r	.	.	pp	.
8C\J	.	.	.	.	.
8CC\L	4r	.	.	.	.
8C\	.	.	.	.	.
8CC\	(>8eL 8c 8G</	.	.	.	.
8C\J	8F#X</J	.	.	.	.
=194	=194	=194	=194	=194	=194
8CC\L	4e 4c 4G</)	.	.	.	.
8C\	.	.	.	.	.
8CC\	4e 4c 4G</	.	.	.	.
8C\J	.	.	.	.	.
8CC\L	4r	.	.	.	.
8C\	.	.	.	.	.
8CC\	8eL 8c 8G#X</	.	.	.	.
8C\J	8F##X</J	.	.	.	.
=195	=195	=195	=195	=195	=195
8CC\L	4e 4c 4G#X</	.	.	.	.
8C\	.	.	.	.	.
8CC\	4e 4c 4G#</	.	.	.	.
8C\J	.	.	.	.	.
8CC\L	4r	.	.	.	.
8C\	.	.	.	.	.
8CC\	8fL 8c/	.	.	.	.
8C\J	8G#</J	.	.	.	.
=196	=196	=196	=196	=196	=196
8CC\L	4f 4c 4A</	.	.	.	.
8C\	.	.	.	.	.
8CC\	4e 4c 4Gn</	.	.	.	.
8C\J	.	.	.	.	.
8F#X\L	4d 4c 4A</	.	.	.	.
8C\	.	.	.	.	.
8Fn\	4a 4d 4B/	.	.	.	.
8C\J	.	.	.	.	.
=197	=197	=197	=197	=197	=197
*	*^	*	*	*	*
4E\	4r	2.ryy	.	.	.	.
8CC/L	4g 4e 4c/	.	.	.	.	.
8C/J	.	.	.	.	.	.
8CC/L	4r	.	.	.	.	.
8C/	.	.	.	.	.	.
8BBB/	(8a/L	4e\	.	.	.	.
8BB/J	8b/J	.	.	.	.	.
!!LO:LB:g=original
=198	=198	=198	=198	=198	=198	=198
8AAA/L	4cc 4e/)	2.ryy	.	.	.	.
8AA/	.	.	.	.	.	.
8AA/	4cc 4a 4e/	.	.	.	.	.
8A/J	.	.	.	.	.	.
8AA\L	4r	.	.	.	.	.
8A\	.	.	.	.	.	.
8AA\	(8b/L	4e\	.	.	.	.
8A\J	8cc/J	.	.	.	.	.
=199	=199	=199	=199	=199	=199	=199
8D\L	4dd/)	4f#X\	.	.	.	.
8A\	.	.	.	.	.	.
8D\	2a 2f# 2d/	2ryy	.	.	.	.
8A\J	.	.	.	.	.	.
8D\L	.	.	.	.	.	.
8A\	.	.	.	.	.	.
8D\	(8a/L	4f#\	.	.	.	.
8A\J	8cc/J	.	.	.	.	.
*	*v	*v	*	*	*	*
=200	=200	=200	=200	=200	=200
8D\L	4b/)	.	.	.	.
8d\	.	.	.	.	.
8D\	(8f#X/L	.	.	.	.
8d\J	8g/J	.	.	.	.
4c#X 4C#X'\	4a/)	.	.	.	.
4cn 4Cn'\	(8e/L	.	.	.	.
.	8f#/J	.	.	.	.
=201	=201	=201	=201	=201	=201
4B 4BB'\	4g/)	.	.	.	.
4B-X 4BB-X'\	8d/L	.	.	.	.
.	8e/J	.	.	.	.
4A 4AA'\	4f/	.	.	.	.
4A- 4AA-'\	8c/L	.	.	.	.
.	8d/J	.	.	.	.
=202	=202	=202	=202	=202	=202
4G 4GG'\	4e/	.	.	.	.
8GGG\L	4e 4c 4G</	.	.	.	.
8GG\J	.	.	.	.	.
8GGG\L	4r	.	.	.	.
8GG\	.	.	.	.	.
8GGGn\	(>8eL 8c 8G#X</	.	.	.	.
8GG\J	8F##X</J	.	.	.	.
!!LO:LB:g=original
=203	=203	=203	=203	=203	=203
8GGGn\L	4e 4c 4G#X</)	.	.	.	.
8GG\	.	.	.	.	.
8GGG\	4e 4c 4G#</	.	.	.	.
8GG\J	.	.	.	.	.
8GGG\L	4r	.	.	.	.
8GG\	.	.	.	.	.
8GGG\	(>8fL 8c 8A</	.	.	.	.
8GG\J	8G#</J	.	.	.	.
=204	=204	=204	=204	=204	=204
8GGG/L	4f 4c 4A/)	.	.	.	.
8GG/J	.	.	.	.	.
8r	4e 4c 4Gn/	.	.	.	.
8GG/	.	.	.	.	.
8F#X\L	4d 4A/	.	.	.	.
8GG\	.	.	.	.	.
8Fn\	4a 4B/	.	.	.	.
8GG\J	.	.	.	.	.
=205	=205	=205	=205	=205	=205
*	*^	*	*	*	*
4E 4C\	4r	2.ryy	.	.	.	.
8CC/L	4g 4e 4c/	.	.	.	.	.
8C/J	.	.	.	.	.	.
8CC/L	4r	.	.	.	.	.
8C/	.	.	.	.	.	.
8BBB/	(8a/L	4e\	.	.	.	.
8BB/J	8b/J	.	.	.	.	.
=206	=206	=206	=206	=206	=206	=206
8AAA/L	4cc 4e'/)	2.ryy	.	.	.	.
8AA/J	.	.	.	.	.	.
8AA\L	4cc 4a 4e/	.	.	.	.	.
8A\J	.	.	.	.	.	.
8AA\L	4r	.	.	.	.	.
8A\	.	.	.	.	.	.
8AA\	(8b/L	4e\	.	.	.	.
8A\J	8cc/J	.	.	.	.	.
=207	=207	=207	=207	=207	=207	=207
8D\L	4ee\ 4f#X\)	2.ryy	.	.	.	.
8A\	.	.	.	.	.	.
8D\	4dd 4a 4f#/	.	.	.	.	.
8A\J	.	.	.	.	.	.
8D\L	4r	.	.	.	.	.
8A\	.	.	.	.	.	.
8D\	(8a/L	4f# 4d\	.	.	.	.
8A\J	8cc/J	.	.	.	.	.
*	*v	*v	*	*	*	*
!!LO:LB:g=original
=208	=208	=208	=208	=208	=208
8GG/L	4b 4fn 4d'/)	.	.	.	.
8G/	.	.	.	.	.
8GG/	4a 4f 4d'/	.	.	.	.
8G/J	.	.	.	.	.
8GG/L	4b 4f 4d'/	.	.	.	.
8G/	.	.	.	.	.
8GG/	4g 4f 4d'/	.	.	.	.
[>8G/J	.	.	.	.	.
=209	=209	=209	=209	=209	=209
4G] 4C\	4cc 4e'/	.	.	.	.
8r	8r	.	.	.	.
8GG'/	(8G/	.	.	p	.
4C'/	8c/L	.	.	.	.
.	8B/	.	.	.	.
4D'\	8d/	.	.	.	.
.	8c/J	.	.	.	.
=210!|:	=210!|:	=210!|:	=210!|:	=210!|:	=210!|:
*>E	*>E	*	*	*	*
4E'\	4e'/)	.	.	.	.
8r	8r	.	.	.	.
8GG'/	(8G/	.	.	p	.
4C'/	8c/L	.	.	.	.
.	8B/	.	.	.	.
4D'\	8d/	.	.	.	.
.	8c/J)	.	.	.	.
=211	=211	=211	=211	=211	=211
4E\	4e/	.	.	.	.
8r	8r	.	.	.	.
8GG/	(<8G/	.	.	.	.
4C/	8c/L	.	.	.	.
.	8B/	.	.	.	.
4D\	8d/	.	.	.	.
.	8c/J	.	.	.	.
=212	=212	=212	=212	=212	=212
4E\	8e/L	.	.	.	.
.	8d/	.	.	.	.
4F\	8f/	.	.	.	.
.	8e/J	.	.	.	.
(4G\	4g/	.	.	.	.
8A\L	8a/L	.	.	.	.
8B\J	8b/J	.	.	.	.
!!LO:LB:g=original
=213	=213	=213	=213	=213	=213
4c\)	4cc'\)	.	.	.	.
8r	8r	.	.	.	.
!	!	!	!	!LO:HP:b:t=cre-scen-do:ext2=ud	!
8E\	8e/	.	.	<	.
(4G\	4g/	.	.	.	.
8A\L	8a/L	.	.	.	.
8B\J	8b/J	.	.	.	.
=214	=214	=214	=214	=214	=214
4c\)	4cc'\	.	.	.	.
8r	8r	.	.	.	.
8E'\	8e/	.	.	.	.
(4G\	4g/	.	.	.	.
8A\L	8a/L	.	.	.	.
8B\J	8b/J	.	.	.	.
=215	=215	=215	=215	=215	=215
4c\)	4cc\	.	.	.	.
8r	8r	.	.	.	.
8E'\	8e/	.	.	.	.
(4G\	4g/	.	.	.	.
8A\L	8a/L	.	.	.	.
8B\J	8b/J	.	.	[[	.
=216	=216	=216	=216	=216	=216
4c\)	(8cc\L	.	.	.	.
.	8b\	.	.	.	.
4d\	8dd\	.	.	.	.
.	8cc\J	.	.	.	.
4e\	8ee\L	.	.	.	.
.	8dd\	.	.	.	.
4f\	8ff\	.	.	.	.
.	8ee\J	.	.	.	.
=217	=217	=217	=217	=217	=217
!LO:N:vis=4	!	!	!	!	!
4.g'\	4.gg'\)	.	.	.	.
8r	8r	.	.	.	.
4.C 4.CC/	4.ggg 4.ccc 4.gg\	.	.	ff	.
8c 8G 8E\	8eee 8gg\	.	.	.	.
=218	=218	=218	=218	=218	=218
4c 4G 4E\	8ccc\L	.	.	.	.
.	8gg\	.	.	.	.
8cL 8G 8E 8C\	8ccc\	.	.	.	.
8cJ 8G 8E 8C\	8eee\J	.	.	.	.
4B 4G 4F 4C'\	4ddd' 4gg\	.	.	.	.
4B 4G 4F 4C'\	4fff' 4gg\	.	.	.	.
!!LO:PB:g=original
=219	=219	=219	=219	=219	=219
4c 4G 4E 4C'\	4eee 4gg'\	.	.	.	.
4G 4E 4C'\	4ccc 4gg'\	.	.	.	.
4.A 4.E 4.C 4.AA^^\	4.eee 4.aa 4.ee^^\	.	.	.	.
8A 8E 8C 8AA\	8ccc 8ee\	.	.	.	.
=220	=220	=220	=220	=220	=220
4A 4E 4C 4AA\	8aa\L	.	.	.	.
.	8ee\	.	.	.	.
8AL 8E 8C 8AA\	8aa\	.	.	.	.
8AJ 8E 8AA\	8cccJ 8ee\	.	.	.	.
4G#X 4E 4AA\	4bb 4ee\	.	.	.	.
*	*8va	*	*	*	*
4G# 4E 4AA'\	4ddd 4bb 4ee'/	.	.	.	.
=221	=221	=221	=221	=221	=221
4A 4E 4AA'\	4ccc 4aa 4ee'/	.	.	.	.
4G#X 4GG#X'/	4ddd 4bb 4ee'/	.	.	<	.
4Gn 4GGn'/	4eee 4ccc#X 4bb-X'\	.	.	.	.
4F 4FF'/	4fff 4ddd 4aa'\	.	.	.	.
=222	=222	=222	=222	=222	=222
4E 4EE'/	4ggg 4cccn 4gg'\	.	.	.	.
4E-X 4EE-X'/	4aaa 4fff#X 4ccc 4aa'\	.	.	.	.
4D 4DD'/	4bbb 4fffn 4ddd 4bb'\	.	.	.	.
4C 4CC'/	4cccc 4eee 4ccc'\	.	.	[[	.
*	*X8va	*	*	*	*
=223	=223	=223	=223	=223	=223
*	*^	*	*	*	*
4F 4FF/	[2ccc/	4aa 4ff 4dd 4cc\	.	.	ff	.
4A 4AA\	.	4ff 4dd 4cc\	.	.	.	.
4F 4FF/	8ccc/L]	4ff 4dd 4cc\	.	.	.	.
.	8aa/	.	.	.	.	.
4r	8ff/	4r	.	.	.	.
.	8dd/J	.	.	.	.	.
=224	=224	=224	=224	=224	=224	=224
4GG/	4gg'\	2.ryy	.	.	.	.
4c 4G 4E\	(8ggL 8ee 8cc\	.	.	.	.	.
.	8g\J	.	.	.	.	.
4GG/	4gg) 4dd 4b\	.	.	.	.	.
4d 4G\	8ff/L	4b 4g\	.	.	.	.
.	8dd/J	.	.	.	.	.
*	*v	*v	*	*	*	*
!!LO:LB:g=original
=225	=225	=225	=225	=225	=225
*>E1	*>E1	*	*	*	*
4c 4C\	4cc 4e/	.	.	.	.
8r	8r	.	.	.	.
8GG'/	(8G/	.	.	p	.
4C'/	8c/L	.	.	.	.
.	8B/	.	.	.	.
4D'\	8d/	.	.	.	.
.	8c/J)	.	.	.	.
=226:|!	=226:|!	=226:|!	=226:|!	=226:|!	=226:|!
*>E2	*>E2	*	*	*	*
4c 4C\	4ee 4cc 4g'\	.	.	.	.
8BL 8G\	2gg 2b 2g^^\	.	.	.	.
8d\J	.	.	.	.	.
4B 4G\	.	.	.	.	.
4G 4GG/	4dd 4b 4g'\	.	.	.	.
=227	=227	=227	=227	=227	=227
*>F	*>F	*	*	*	*
4c 4C\	4ee 4cc 4g'\	.	.	.	.
8BL 8G\	2gg 2b 2g^^\	.	.	.	.
8d\J	.	.	.	.	.
4B 4G\	.	.	.	.	.
4G 4GG/	4dd 4b 4g\	.	.	.	.
=228	=228	=228	=228	=228	=228
4G 4E 4C\	4ee 4cc 4g\	.	.	.	.
4G 4D 4GG/	4dd 4b 4g\	.	.	.	.
4G 4E 4C\	4ee 4cc 4g\	.	.	.	.
4G 4D 4GG/	4dd 4b 4g\	.	.	.	.
=229	=229	=229	=229	=229	=229
4G 4E 4C\	4ee 4cc 4g\	.	.	.	.
4G 4D 4GG/	4dd 4b 4g\	.	.	.	.
4G 4E 4C\	4ee 4cc 4g\	.	.	.	.
4G 4D 4GG/	4dd 4b 4g\	.	.	.	.
=230	=230	=230	=230	=230	=230
2c 2C^^\	8ggL 8ee^^\	.	.	.	.
.	8cc\	.	.	.	.
.	8gg 8ee\	.	.	.	.
.	8cc\J	.	.	.	.
2B 2BB\	8gg#XL 8ee 8dd^^\	.	.	.	.
.	8b\	.	.	.	.
.	8gg# 8ee 8dd\	.	.	.	.
.	8b\J	.	.	.	.
!!LO:LB:g=original
=231	=231	=231	=231	=231	=231
2E 2EE/	8bbL 8gg#X 8dd^^\	.	.	.	.
.	8b\	.	.	.	.
.	8bb 8gg# 8dd\	.	.	.	.
.	8b\J	.	.	.	.
!LO:TX:t=P:problem:spiccato u dołu	!	!	!	!	!
2F#X 2FF#X^^</	8aaL 8ee-X^^\	.	.	.	.
.	8cc\	.	.	.	.
.	8aa 8ee-\	.	.	.	.
.	8cc\J	.	.	.	.
=232	=232	=232	=232	=232	=232
4G 4GG/	2.gg 2.een 2.cc\	.	.	.	.
4g 4G\	.	.	.	.	.
4e 4E\	.	.	.	.	.
4c 4C\	8ee\L	.	.	.	.
.	8cc\J	.	.	.	.
=233	=233	=233	=233	=233	=233
2G 2GG/	2dd 2cc 2g\	.	.	.	.
2GG 2GGG/	2gg 2dd 2b 2g\	.	.	.	.
=234	=234	=234	=234	=234	=234
*	*^	*	*	*	*
4C 4CC/	4cc 4g 4e/	2ryy	.	.	.	.
4c 4G 4E 4C\	4r	.	.	.	.	.
4c 4G 4E 4C\	4.gg/	4cc 4g\	.	.	.	.
4c 4G 4E 4C\	.	4cc 4g\	.	.	.	.
.	8ee/	.	.	.	.	.
*	*v	*v	*	*	*	*
=235	=235	=235	=235	=235	=235
4c 4G 4E 4C\	8cc\L	.	.	.	.
.	8g\	.	.	.	.
4c 4G 4E 4C\	8cc\	.	.	.	.
.	8ee\J	.	.	.	.
4B 4G 4F 4C\	4dd 4g\	.	.	.	.
4B 4G 4D 4C\	4ff 4dd 4g\	.	.	.	.
=236	=236	=236	=236	=236	=236
*	*^	*	*	*	*
4c 4G 4E 4C\	4ee\ 4cc\ 4g\	2ryy	.	.	.	.
4c 4G 4E 4C\	4cc\ 4g\ 4e\	.	.	.	.	.
4c 4G 4E 4C\	4.ee/	4g 4e\	.	.	.	.
4c 4G 4E 4C\	.	4g 4e\	.	.	.	.
.	8cc/	.	.	.	.	.
*	*v	*v	*	*	*	*
!!LO:LB:g=original
=237	=237	=237	=237	=237	=237
4c 4G 4E 4C\	8g/L	.	.	.	.
.	8e/	.	.	.	.
4c 4G 4E 4C\	8g/	.	.	.	.
.	8cc/J	.	.	.	.
4B 4G 4F 4C\	4b 4g 4d/	.	.	.	.
4B 4G 4F 4C\	4dd 4g 4d/	.	.	.	.
=238	=238	=238	=238	=238	=238
*	*^	*	*	*	*
4c 4G 4E 4C\	4cc 4g 4e/	2ryy	.	.	.	.
4c 4G 4E 4C\	4r	.	.	.	.	.
4c 4G 4E 4C\	4.gg/	4cc 4g\	.	.	.	.
4c 4G 4E 4C\	.	4cc 4g\	.	.	.	.
.	8ee/	.	.	.	.	.
*	*v	*v	*	*	*	*
=239	=239	=239	=239	=239	=239
4c 4G 4E 4C\	8cc\L	.	.	.	.
.	8g\	.	.	.	.
4c 4G 4E 4C\	8cc\	.	.	.	.
.	8ee\J	.	.	.	.
4B 4G 4F 4D 4C\	4dd 4g\	.	.	.	.
4B 4G 4D 4C\	4ff 4g\	.	.	.	.
=240	=240	=240	=240	=240	=240
*	*^	*	*	*	*
4c 4G 4E 4C\	4ee\ 4cc\ 4g\	2ryy	.	.	.	.
4c 4G 4E 4C\	4cc 4g 4e/	.	.	.	.	.
4c 4G 4E 4C\	4.ee/	4g 4e\	.	.	.	.
4c 4G 4E 4C\	.	4g 4e\	.	.	.	.
.	8cc/	.	.	.	.	.
*	*v	*v	*	*	*	*
=241	=241	=241	=241	=241	=241
4c 4G 4E 4C\	8g/L	.	.	.	.
.	8e/	.	.	.	.
4c 4G 4E 4C\	8g/	.	.	.	.
.	8cc/J	.	.	.	.
4B 4G 4F 4C\	4b 4g 4d/	.	.	.	.
4B 4G 4F 4C\	4dd 4g 4d/	.	.	.	.
!!LO:LB:g=original
=242	=242	=242	=242	=242	=242
4c 4G 4E 4C\	4cc 4g 4e/	.	.	.	.
4r	4r	.	.	.	.
4G 4D 4BB 4GG/	4gg 4dd 4b 4g\	.	.	.	.
4r	4r	.	.	.	.
=243	=243	=243	=243	=243	=243
!	!LO:SIC:v:n=3:s=4g:note=interpretacja niepewna	!	!	!	!
4c 4G 4E 4C\	4ee 4cc 4a 4e/	.	.	.	.
4r	4r	.	.	.	.
4G 4D 4BB 4GG/	4gg 4dd 4b 4g\	.	.	.	.
4r	4r	.	.	.	.
=244	=244	=244	=244	=244	=244
4c 4E 4C\	4ee 4cc 4g 4e/	.	.	.	.
4r	4r	.	.	.	.
4r	4r	.	.	.	.
8CL 8GG 8CC/	8cccL 8ee 8cc\	.	.	.	.
8CJ 8GG 8CC/	8cccJ 8ee 8cc\	.	.	.	.
=245	=245	=245	=245	=245	=245
2C 2GG 2CC/	2ccc 2ee 2cc\	.	.	.	.
4r	4r	.	.	.	.
8CL 8CC/	8c/L	.	.	.	.
8CJ 8CC/	8c/J	.	.	.	.
=246	=246	=246	=246	=246	=246
*tremolo	*	*	*	*	*
16CC/LL	[1c	.	.	.	.
16C/	.	.	.	.	.
16CC/	.	.	.	.	.
16C/	.	.	.	.	.
16CC/	.	.	.	.	.
16C/	.	.	.	.	.
16CC/	.	.	.	.	.
16C/JJ	.	.	.	.	.
16CC/LL	.	.	.	.	.
16C/	.	.	.	.	.
16CC/	.	.	.	.	.
16C/	.	.	.	.	.
16CC/	.	.	.	.	.
16C/	.	.	.	.	.
16CC/	.	.	.	.	.
16C/JJ	.	.	.	.	.
=247	=247	=247	=247	=247	=247
16CC/LL	2.c/]	.	.	.	.
16C/	.	.	.	.	.
16CC/	.	.	.	.	.
16C/	.	.	.	.	.
16CC/	.	.	.	.	.
16C/	.	.	.	.	.
16CC/	.	.	.	.	.
16C/JJ	.	.	.	.	.
16CC/LL	.	.	.	.	.
16C/	.	.	.	.	.
16CC/	.	.	.	.	.
16C/	.	.	.	.	.
16CC/	4r	.	.	.	.
16C/	.	.	.	.	.
16CC/	.	.	.	.	.
16C/JJ	.	.	.	.	.
*Xtremolo	*	*	*	*	*
=248	=248	=248	=248	=248	=248
4C 4GG 4EE 4CC/	4ccc 4gg 4ee 4cc\	.	.	sf	.
4r	4r	.	.	.	.
2r	2r	.	.	.	.
==	==	==	==	==	==
*-	*-	*-	*-	*-	*-
!!!system-decoration: {(p1)}
!!!ENC: Berenika Jozajtis
!!!END: 2022-08-23
!!!ENC: Kamil Watkowski
!!!END: 2022-09-28
!!!RDF**kern: > = above
!!!RDF**kern: < = below
!!!YEC: Copyright 2022 Narodowy Instytut Fryderyka Chopina (https://polishscores.org)
!!!YEM: License CC-BY-4.0 (https://creativecommons.org/licenses/by/4.0)
